visual_library/02_LUTs_and_Grading/LUT_teal_orange.cube
TITLE "teal_orange"
LUT_3D_SIZE 5
DOMAIN_MIN 0 0 0
DOMAIN_MAX 1 1 1
0.000000 0.020000 0.105000
0.223401 0.018574 0.095945
0.477600 0.017313 0.086458
0.732293 0.016177 0.076777
0.987371 0.015150 0.066992
0.000000 0.265791 0.073224
0.239302 0.264803 0.063415
0.494806 0.263916 0.053574
0.750572 0.263127 0.043737
1.000000 0.262434 0.033936
0.002730 0.512864 0.040163
0.258806 0.512205 0.030383
0.515081 0.511642 0.020678
0.771534 0.511174 0.011074
1.000000 0.510802 0.001599
0.023923 0.761027 0.007608
0.280588 0.760691 0.000000
0.537388 0.760454 0.000000
0.794307 0.760320 0.000000
1.000000 0.760294 0.000000
0.046852 1.000000 0.000000
0.303903 1.000000 0.000000
0.561027 1.000000 0.000000
0.818198 1.000000 0.000000
1.000000 1.000000 0.000000
0.000000 0.019490 0.352012
0.224761 0.018130 0.342753
0.479145 0.016914 0.333187
0.733978 0.015816 0.323463
0.989171 0.014826 0.313656
0.000000 0.265443 0.319899
0.241139 0.264490 0.310075
0.496736 0.263637 0.300231
0.752584 0.262881 0.290403
1.000000 0.262220 0.280621
0.004770 0.512630 0.286835
0.260916 0.512003 0.277077
0.517253 0.511472 0.267404
0.773762 0.511037 0.257841
1.000000 0.510698 0.248416
0.026170 0.760902 0.254392
0.282883 0.760600 0.245025
0.539726 0.760397 0.235836
0.796680 0.760299 0.226861
1.000000 0.760310 0.218139
0.049237 1.000000 0.223654
0.306315 1.000000 0.215036
0.563458 1.000000 0.206747
0.820639 1.000000 0.198866
1.000000 1.000000 0.191531
0.000000 0.019009 0.598920
0.226192 0.017703 0.589528
0.480742 0.016529 0.579898
0.735705 0.015468 0.570139
0.991006 0.014512 0.560315
0.000000 0.265108 0.566567
0.243010 0.264190 0.556732
0.498696 0.263370 0.546890
0.754622 0.262646 0.537074
1.000000 0.262018 0.527315
0.006835 0.512406 0.533513
0.263048 0.511812 0.523781
0.519445 0.511314 0.514142
0.776008 0.510911 0.504623
1.000000 0.510606 0.495252
0.028434 0.760788 0.501193
0.285193 0.760519 0.491883
0.542076 0.760352 0.482762
0.799065 0.760290 0.473868
1.000000 0.760340 0.465243
0.051632 1.000000 0.470694
0.308735 1.000000 0.462181
0.565894 1.000000 0.454020
0.823079 1.000000 0.446304
1.000000 1.000000 0.439208
0.000000 0.018549 0.845769
0.227684 0.017291 0.836277
0.482385 0.016156 0.826594
0.737470 0.015132 0.816807
0.992874 0.014211 0.806973
0.000000 0.264785 0.813230
0.244912 0.263900 0.803388
0.500683 0.263113 0.793552
0.756685 0.262422 0.783752
1.000000 0.261826 0.774018
0.008923 0.512194 0.780199
0.265201 0.511632 0.770496
0.521656 0.511166 0.760895
0.778271 0.510796 0.751422
1.000000 0.510525 0.742108
0.030715 0.760686 0.748012
0.287518 0.760451 0.738762
0.544438 0.760319 0.729714
0.801459 0.760294 0.720906
1.000000 0.760384 0.712385
0.054036 1.000000 0.717768
0.311161 1.000000 0.709366
0.568333 1.000000 0.701343
0.825516 1.000000 0.693812
1.000000 1.000000 0.687007
0.000000 0.018106 1.000000
0.229232 0.016892 1.000000
0.484073 0.015797 1.000000
0.739272 0.014808 1.000000
0.994774 0.013921 1.000000
0.000000 0.264473 1.000000
0.246844 0.263622 1.000000
0.502697 0.262868 1.000000
0.758772 0.262209 1.000000
1.000000 0.261645 1.000000
0.011034 0.511993 1.000000
0.267374 0.511463 1.000000
0.523886 0.511030 1.000000
0.780550 0.510693 0.998240
1.000000 0.510455 0.988986
0.033011 0.760595 0.994850
0.289856 0.760394 0.985665
0.546812 0.760298 0.976694
0.803863 0.760311 0.967978
1.000000 0.760442 0.959567
0.056449 1.000000 0.964877
0.313593 1.000000 0.956594
0.570774 1.000000 0.948723
0.827947 1.000000 0.941399
1.000000 1.000000 0.935000
