visual_library/02_LUTs_and_Grading/LUT_bw_film.cube
TITLE "bw_film"
LUT_3D_SIZE 5
DOMAIN_MIN 0 0 0
DOMAIN_MAX 1 1 1
0.000000 0.000000 0.000000
0.058500 0.058500 0.058500
0.147000 0.147000 0.147000
0.235500 0.235500 0.235500
0.324000 0.324000 0.324000
0.144050 0.144050 0.144050
0.232550 0.232550 0.232550
0.321050 0.321050 0.321050
0.409550 0.409550 0.409550
0.498050 0.498050 0.498050
0.318100 0.318100 0.318100
0.406600 0.406600 0.406600
0.495100 0.495100 0.495100
0.583600 0.583600 0.583600
0.672100 0.672100 0.672100
0.492150 0.492150 0.492150
0.580650 0.580650 0.580650
0.669150 0.669150 0.669150
0.757650 0.757650 0.757650
0.846150 0.846150 0.846150
0.666200 0.666200 0.666200
0.754700 0.754700 0.754700
0.843200 0.843200 0.843200
0.931700 0.931700 0.931700
1.000000 1.000000 1.000000
0.002450 0.002450 0.002450
0.090950 0.090950 0.090950
0.179450 0.179450 0.179450
0.267950 0.267950 0.267950
0.356450 0.356450 0.356450
0.176500 0.176500 0.176500
0.265000 0.265000 0.265000
0.353500 0.353500 0.353500
0.442000 0.442000 0.442000
0.530500 0.530500 0.530500
0.350550 0.350550 0.350550
0.439050 0.439050 0.439050
0.527550 0.527550 0.527550
0.616050 0.616050 0.616050
0.704550 0.704550 0.704550
0.524600 0.524600 0.524600
0.613100 0.613100 0.613100
0.701600 0.701600 0.701600
0.790100 0.790100 0.790100
0.878600 0.878600 0.878600
0.698650 0.698650 0.698650
0.787150 0.787150 0.787150
0.875650 0.875650 0.875650
0.964150 0.964150 0.964150
1.000000 1.000000 1.000000
0.034900 0.034900 0.034900
0.123400 0.123400 0.123400
0.211900 0.211900 0.211900
0.300400 0.300400 0.300400
0.388900 0.388900 0.388900
0.208950 0.208950 0.208950
0.297450 0.297450 0.297450
0.385950 0.385950 0.385950
0.474450 0.474450 0.474450
0.562950 0.562950 0.562950
0.383000 0.383000 0.383000
0.471500 0.471500 0.471500
0.560000 0.560000 0.560000
0.648500 0.648500 0.648500
0.737000 0.737000 0.737000
0.557050 0.557050 0.557050
0.645550 0.645550 0.645550
0.734050 0.734050 0.734050
0.822550 0.822550 0.822550
0.911050 0.911050 0.911050
0.731100 0.731100 0.731100
0.819600 0.819600 0.819600
0.908100 0.908100 0.908100
0.996600 0.996600 0.996600
1.000000 1.000000 1.000000
0.067350 0.067350 0.067350
0.155850 0.155850 0.155850
0.244350 0.244350 0.244350
0.332850 0.332850 0.332850
0.421350 0.421350 0.421350
0.241400 0.241400 0.241400
0.329900 0.329900 0.329900
0.418400 0.418400 0.418400
0.506900 0.506900 0.506900
0.595400 0.595400 0.595400
0.415450 0.415450 0.415450
0.503950 0.503950 0.503950
0.592450 0.592450 0.592450
0.680950 0.680950 0.680950
0.769450 0.769450 0.769450
0.589500 0.589500 0.589500
0.678000 0.678000 0.678000
0.766500 0.766500 0.766500
0.855000 0.855000 0.855000
0.943500 0.943500 0.943500
0.763550 0.763550 0.763550
0.852050 0.852050 0.852050
0.940550 0.940550 0.940550
1.000000 1.000000 1.000000
1.000000 1.000000 1.000000
0.099800 0.099800 0.099800
0.188300 0.188300 0.188300
0.276800 0.276800 0.276800
0.365300 0.365300 0.365300
0.453800 0.453800 0.453800
0.273850 0.273850 0.273850
0.362350 0.362350 0.362350
0.450850 0.450850 0.450850
0.539350 0.539350 0.539350
0.627850 0.627850 0.627850
0.447900 0.447900 0.447900
0.536400 0.536400 0.536400
0.624900 0.624900 0.624900
0.713400 0.713400 0.713400
0.801900 0.801900 0.801900
0.621950 0.621950 0.621950
0.710450 0.710450 0.710450
0.798950 0.798950 0.798950
0.887450 0.887450 0.887450
0.975950 0.975950 0.975950
0.796000 0.796000 0.796000
0.884500 0.884500 0.884500
0.973000 0.973000 0.973000
1.000000 1.000000 1.000000
1.000000 1.000000 1.000000
