visual_library/02_LUTs_and_Grading/LUT_teal_orange.cube
TITLE "teal_orange"
LUT_3D_SIZE 9
DOMAIN_MIN 0 0 0
DOMAIN_MAX 1 1 1
0.000000 0.020000 0.105000
0.096556 0.019260 0.100561
0.223401 0.018574 0.095945
0.350429 0.017927 0.091234
0.477600 0.017313 0.086458
0.604893 0.016730 0.081635
0.732293 0.016177 0.076777
0.859789 0.015650 0.071894
0.987371 0.015150 0.066992
0.000000 0.142700 0.089502
0.103422 0.142098 0.084707
0.230755 0.141526 0.079870
0.358191 0.140982 0.075002
0.485719 0.140465 0.070111
0.613332 0.139975 0.065204
0.741021 0.139510 0.060287
0.868783 0.139070 0.055366
0.996612 0.138655 0.050444
0.000000 0.265791 0.073224
0.111661 0.265284 0.068326
0.239302 0.264803 0.063415
0.367019 0.264347 0.058496
0.494806 0.263916 0.053574
0.622658 0.263509 0.048652
0.750572 0.263127 0.043737
0.878544 0.262769 0.038830
1.000000 0.262434 0.033936
0.000000 0.389187 0.056704
0.120837 0.388765 0.051782
0.248712 0.388367 0.046862
0.376647 0.387994 0.041949
0.504639 0.387644 0.037047
0.632685 0.387318 0.032158
0.760781 0.387016 0.027287
0.888925 0.386738 0.022438
1.000000 0.386483 0.017612
0.002730 0.512864 0.040163
0.130742 0.512523 0.035265
0.258806 0.512205 0.030383
0.386920 0.511912 0.025519
0.515081 0.511642 0.020678
0.643286 0.511396 0.015862
0.771534 0.511174 0.011074
0.899820 0.510976 0.006319
1.000000 0.510802 0.001599
0.013066 0.636811 0.023754
0.141243 0.636550 0.018921
0.269464 0.636312 0.014115
0.397726 0.636099 0.009339
0.526027 0.635910 0.004596
0.654364 0.635745 0.000000
0.782737 0.635605 0.000000
0.911141 0.635490 0.000000
1.000000 0.635400 0.000000
0.023923 0.761027 0.007608
0.152238 0.760847 0.002879
0.280588 0.760691 0.000000
0.408972 0.760560 0.000000
0.537388 0.760454 0.000000
0.665834 0.760374 0.000000
0.794307 0.760320 0.000000
0.922805 0.760293 0.000000
1.000000 0.760294 0.000000
0.035213 0.885519 0.000000
0.163640 0.885422 0.000000
0.292095 0.885352 0.000000
0.420578 0.885307 0.000000
0.549085 0.885290 0.000000
0.677613 0.885301 0.000000
0.806161 0.885340 0.000000
0.934726 0.885410 0.000000
1.000000 0.885511 0.000000
0.046852 1.000000 0.000000
0.175367 1.000000 0.000000
0.303903 1.000000 0.000000
0.432457 1.000000 0.000000
0.561027 1.000000 0.000000
0.689609 1.000000 0.000000
0.818198 1.000000 0.000000
0.946791 1.000000 0.000000
1.000000 1.000000 0.000000
0.000000 0.019740 0.228526
0.097159 0.019022 0.224007
0.224072 0.018350 0.219354
0.351151 0.017715 0.214618
0.478366 0.017112 0.209825
0.605697 0.016539 0.204989
0.733130 0.015995 0.200121
0.860656 0.015478 0.195231
0.988267 0.014987 0.190324
0.000000 0.142492 0.212879
0.104202 0.141900 0.208069
0.231572 0.141338 0.203220
0.359040 0.140803 0.198343
0.486597 0.140296 0.193446
0.614237 0.139814 0.188535
0.741951 0.139358 0.183616
0.869737 0.138926 0.178694
0.997587 0.138519 0.173773
0.000000 0.265616 0.196562
0.112549 0.265117 0.191660
0.240217 0.264645 0.186745
0.367958 0.264198 0.181824
0.495767 0.263775 0.176902
0.623641 0.263377 0.171982
0.751575 0.263003 0.167069
0.879566 0.262652 0.162166
1.000000 0.262326 0.157278
0.000000 0.389041 0.180032
0.121806 0.388627 0.175110
0.249702 0.388238 0.170193
0.377657 0.387872 0.165283
0.505668 0.387531 0.160385
0.633731 0.387213 0.155502
0.761844 0.386919 0.150638
0.890003 0.386648 0.145796
1.000000 0.386402 0.140979
0.003747 0.512745 0.163498
0.131777 0.512412 0.158605
0.259858 0.512103 0.153729
0.387989 0.511818 0.148872
0.516165 0.511556 0.144039
0.644384 0.511318 0.139232
0.772645 0.511104 0.134455
0.900945 0.510914 0.129712
1.000000 0.510749 0.125005
0.014140 0.636720 0.147110
0.142332 0.636466 0.142286
0.270567 0.636237 0.137490
0.398842 0.636032 0.132724
0.527156 0.635851 0.127994
0.655506 0.635695 0.123302
0.783889 0.635563 0.118651
0.912305 0.635457 0.114047
1.000000 0.635376 0.109492
0.025045 0.760963 0.130998
0.153371 0.760791 0.126281
0.281734 0.760644 0.121603
0.410129 0.760521 0.116969
0.538555 0.760424 0.112382
0.667011 0.760353 0.107847
0.795492 0.760308 0.103368
0.923999 0.760290 0.098950
1.000000 0.760300 0.094600
0.036373 0.885483 0.115294
0.164810 0.885395 0.110725
0.293275 0.885334 0.106210
0.421766 0.885298 0.101752
0.550281 0.885291 0.097358
0.678816 0.885311 0.093034
0.807370 0.885361 0.088786
0.935939 0.885441 0.084622
1.000000 0.885553 0.080551
0.048043 1.000000 0.100145
0.176565 1.000000 0.095776
0.305108 1.000000 0.091478
0.433668 1.000000 0.087260
0.562242 1.000000 0.083128
0.690827 1.000000 0.079094
0.819418 1.000000 0.075171
0.948011 1.000000 0.071374
1.000000 1.000000 0.067729
0.000000 0.019490 0.352012
0.097787 0.018789 0.347438
0.224761 0.018130 0.342753
0.351889 0.017507 0.337996
0.479145 0.016914 0.333187
0.606512 0.016351 0.328339
0.733978 0.015816 0.323463
0.861534 0.015308 0.318566
0.989171 0.014826 0.313656
0.000000 0.142287 0.336250
0.104995 0.141706 0.331426
0.232399 0.141153 0.326567
0.359899 0.140628 0.321682
0.487485 0.140129 0.316780
0.615150 0.139656 0.311865
0.742890 0.139208 0.306945
0.870698 0.138785 0.302022
0.998570 0.138386 0.297102
0.000000 0.265443 0.319899
0.113446 0.264954 0.314992
0.241139 0.264490 0.310075
0.368904 0.264052 0.305153
0.496736 0.263637 0.300231
0.624631 0.263247 0.295313
0.752584 0.262881 0.290403
0.880594 0.262539 0.285504
1.000000 0.262220 0.280621
0.000000 0.388898 0.303360
0.122783 0.388492 0.298440
0.250699 0.388111 0.293524
0.378674 0.387754 0.288618
0.506702 0.387420 0.283725
0.634783 0.387110 0.278848
0.762911 0.386824 0.273991
0.891087 0.386562 0.269157
1.000000 0.386323 0.264350
0.004770 0.512630 0.286835
0.132818 0.512305 0.281947
0.260916 0.512003 0.277077
0.389062 0.511726 0.272228
0.517253 0.511472 0.267404
0.645487 0.511243 0.262607
0.773762 0.511037 0.257841
0.902075 0.510855 0.253109
1.000000 0.510698 0.248416
0.015219 0.636631 0.270469
0.143426 0.636386 0.265654
0.271675 0.636165 0.260868
0.399964 0.635968 0.256114
0.528290 0.635795 0.251396
0.656651 0.635647 0.246717
0.785046 0.635524 0.242082
0.913471 0.635426 0.237494
1.000000 0.635354 0.232957
0.026170 0.760902 0.254392
0.154509 0.760739 0.249688
0.282883 0.760600 0.245025
0.411289 0.760486 0.240406
0.539726 0.760397 0.235836
0.668190 0.760335 0.231319
0.796680 0.760299 0.226861
0.925194 0.760290 0.222465
1.000000 0.760310 0.218139
0.037537 0.885450 0.238736
0.165984 0.885371 0.234185
0.294458 0.885319 0.229689
0.422957 0.885293 0.225253
0.551479 0.885294 0.220882
0.680021 0.885325 0.216582
0.808581 0.885384 0.212362
0.937154 0.885475 0.208228
1.000000 0.885599 0.204192
0.049237 1.000000 0.223654
0.177766 1.000000 0.219308
0.306315 1.000000 0.215036
0.434880 1.000000 0.210846
0.563458 1.000000 0.206747
0.692046 1.000000 0.202749
0.820639 1.000000 0.198866
0.949230 1.000000 0.195118
1.000000 1.000000 0.191531
0.000000 0.019247 0.475475
0.098438 0.018561 0.470857
0.225468 0.017915 0.466144
0.352642 0.017302 0.461368
0.479937 0.016720 0.456544
0.607339 0.016166 0.451686
0.734836 0.015641 0.446802
0.862421 0.015141 0.441900
0.990084 0.014668 0.436986
0.000000 0.142087 0.459616
0.105800 0.141515 0.454779
0.233238 0.140972 0.449910
0.360768 0.140456 0.445019
0.488381 0.139966 0.440112
0.616073 0.139501 0.435195
0.743836 0.139062 0.430273
0.871666 0.138647 0.425351
0.999559 0.138256 0.420433
0.000000 0.265274 0.443234
0.114353 0.264794 0.438323
0.242071 0.264339 0.433403
0.369859 0.263908 0.428481
0.497712 0.263502 0.423560
0.625627 0.263120 0.418644
0.753600 0.262762 0.413738
0.881628 0.262428 0.408844
1.000000 0.262118 0.403967
0.000000 0.388757 0.426689
0.123767 0.388360 0.421769
0.251703 0.387987 0.416857
0.379696 0.387638 0.411955
0.507743 0.387312 0.407067
0.635840 0.387011 0.402196
0.763985 0.386733 0.397346
0.892175 0.386478 0.392521
1.000000 0.386248 0.387724
0.005799 0.512517 0.410173
0.133865 0.512200 0.405291
0.261979 0.511907 0.400428
0.390141 0.511637 0.395587
0.518347 0.511392 0.390771
0.646595 0.511170 0.385984
0.774883 0.510972 0.381230
0.903208 0.510799 0.376511
1.000000 0.510651 0.371831
0.016303 0.636545 0.393830
0.144525 0.636308 0.389025
0.272787 0.636095 0.384249
0.401089 0.635907 0.379507
0.529427 0.635742 0.374802
0.657800 0.635603 0.370138
0.786206 0.635488 0.365518
0.914641 0.635399 0.360947
1.000000 0.635336 0.356429
0.027300 0.760844 0.377790
0.155651 0.760689 0.373099
0.284036 0.760558 0.368451
0.412453 0.760453 0.363848
0.540899 0.760373 0.359296
0.669373 0.760320 0.354798
0.797871 0.760293 0.350361
0.926393 0.760294 0.345988
1.000000 0.760323 0.341687
0.038704 0.885421 0.362185
0.167161 0.885350 0.357652
0.295644 0.885307 0.353176
0.424151 0.885290 0.348761
0.552680 0.885301 0.344413
0.681228 0.885342 0.340140
0.809793 0.885412 0.335948
0.938371 0.885514 0.331846
1.000000 0.885649 0.327845
0.050433 1.000000 0.347170
0.178970 1.000000 0.342849
0.307524 1.000000 0.338604
0.436094 1.000000 0.334443
0.564676 1.000000 0.330377
0.693266 1.000000 0.326417
0.821859 1.000000 0.322577
0.950448 1.000000 0.318880
1.000000 1.000000 0.315356
0.000000 0.019009 0.598920
0.099109 0.018338 0.594265
0.226192 0.017703 0.589528
0.353409 0.017101 0.584734
0.480742 0.016529 0.579898
0.608177 0.015985 0.575030
0.735705 0.015468 0.570139
0.863317 0.014978 0.565232
0.991006 0.014512 0.560315
0.000000 0.141889 0.582978
0.106617 0.141328 0.578129
0.234087 0.140794 0.573251
0.361646 0.140287 0.568354
0.489287 0.139805 0.563443
0.617003 0.139349 0.558524
0.744790 0.138918 0.553601
0.872642 0.138512 0.548680
1.000000 0.138129 0.543764
0.000000 0.265108 0.566567
0.115267 0.264636 0.561653
0.243010 0.264190 0.556732
0.370821 0.263767 0.551809
0.498696 0.263370 0.546890
0.626631 0.262996 0.541977
0.754622 0.262646 0.537074
0.882668 0.262320 0.532186
1.000000 0.262018 0.527315
0.000000 0.388620 0.550018
0.124757 0.388231 0.545100
0.252713 0.387866 0.540191
0.380725 0.387525 0.535293
0.508789 0.387207 0.530410
0.636903 0.386913 0.525547
0.765063 0.386644 0.520705
0.893268 0.386397 0.515889
1.000000 0.386175 0.511101
0.006835 0.512406 0.533513
0.134917 0.512098 0.528637
0.263048 0.511812 0.523781
0.391225 0.511551 0.518948
0.519445 0.511314 0.514142
0.647707 0.511100 0.509366
0.776008 0.510911 0.504623
0.904345 0.510746 0.499917
1.000000 0.510606 0.495252
0.017392 0.636462 0.517195
0.145628 0.636233 0.512400
0.273904 0.636028 0.507635
0.402219 0.635848 0.502905
0.530569 0.635692 0.498214
0.658953 0.635561 0.493564
0.787369 0.635455 0.488960
0.915815 0.635375 0.484407
1.000000 0.635321 0.479908
0.028434 0.760788 0.501193
0.156797 0.760641 0.496516
0.285193 0.760519 0.491883
0.413620 0.760423 0.487297
0.542076 0.760352 0.482762
0.670558 0.760307 0.478284
0.799065 0.760290 0.473868
0.927593 0.760301 0.469519
1.000000 0.760340 0.465243
0.039875 0.885394 0.485640
0.168341 0.885333 0.481125
0.296832 0.885298 0.476669
0.425347 0.885291 0.472276
0.553883 0.885312 0.467953
0.682437 0.885362 0.463707
0.811007 0.885443 0.459544
0.939588 0.885556 0.455475
1.000000 0.885703 0.451512
0.051632 1.000000 0.470694
0.180175 1.000000 0.466398
0.308735 1.000000 0.462181
0.437309 1.000000 0.458051
0.565894 1.000000 0.454020
0.694486 1.000000 0.450098
0.823079 1.000000 0.446304
0.951665 1.000000 0.442662
1.000000 1.000000 0.439208
0.000000 0.018777 0.722351
0.099800 0.018118 0.717664
0.226931 0.017495 0.712906
0.354189 0.016903 0.708096
0.481558 0.016341 0.703248
0.609026 0.015806 0.698371
0.736583 0.015299 0.693474
0.864221 0.014817 0.688563
0.991936 0.014360 0.683644
0.000000 0.141695 0.706335
0.107445 0.141143 0.701475
0.234947 0.140618 0.696590
0.362534 0.140120 0.691687
0.490201 0.139648 0.686773
0.617942 0.139200 0.681852
0.745751 0.138777 0.676930
0.873624 0.138379 0.672010
1.000000 0.138005 0.667097
0.000000 0.264945 0.689899
0.116191 0.264482 0.684982
0.243957 0.264043 0.680060
0.371790 0.263630 0.675138
0.499686 0.263240 0.670220
0.627640 0.262874 0.665310
0.755651 0.262533 0.660412
0.883713 0.262215 0.655530
1.000000 0.261920 0.650665
0.000000 0.388485 0.673347
0.125755 0.388104 0.668432
0.253730 0.387747 0.663526
0.381760 0.387414 0.658633
0.509841 0.387105 0.653756
0.637971 0.386819 0.648900
0.766147 0.386557 0.644066
0.894366 0.386319 0.639259
1.000000 0.386105 0.634482
0.007876 0.512299 0.656855
0.135975 0.511998 0.651986
0.264122 0.511721 0.647137
0.392314 0.511468 0.642313
0.520549 0.511239 0.637517
0.648824 0.511033 0.632751
0.777137 0.510852 0.628021
0.905487 0.510696 0.623328
1.000000 0.510564 0.618677
0.018487 0.636382 0.640563
0.146736 0.636161 0.635778
0.275026 0.635964 0.631025
0.403353 0.635792 0.626308
0.531715 0.635645 0.621630
0.660110 0.635522 0.616995
0.788536 0.635425 0.612408
0.916991 0.635353 0.607872
1.000000 0.635308 0.603393
0.029573 0.760736 0.624600
0.157947 0.760597 0.619937
0.286354 0.760484 0.615320
0.414791 0.760396 0.610751
0.543256 0.760334 0.606235
0.671746 0.760298 0.601777
0.800261 0.760291 0.597383
0.928796 0.760311 0.593058
1.000000 0.760360 0.588810
0.041049 0.885370 0.609100
0.169524 0.885318 0.604605
0.298023 0.885292 0.600170
0.426546 0.885295 0.595800
0.555088 0.885325 0.591502
0.683648 0.885386 0.587283
0.812222 0.885477 0.583151
0.940807 0.885602 0.579117
1.000000 0.885761 0.575193
0.052833 1.000000 0.594227
0.181382 1.000000 0.589957
0.309947 1.000000 0.585768
0.438526 1.000000 0.581671
0.567114 1.000000 0.577675
0.695706 1.000000 0.573795
0.824298 1.000000 0.570049
0.952879 1.000000 0.566465
1.000000 1.000000 0.563090
0.000000 0.018549 0.845769
0.100508 0.017903 0.841055
0.227684 0.017291 0.836277
0.354982 0.016709 0.831453
0.482385 0.016156 0.826594
0.609884 0.015631 0.821710
0.737470 0.015132 0.816807
0.865135 0.014659 0.811893
0.992874 0.014211 0.806973
0.000000 0.141505 0.829688
0.108285 0.140962 0.824818
0.235816 0.140446 0.819927
0.363431 0.139957 0.815019
0.491124 0.139493 0.810102
0.618888 0.139054 0.805180
0.746720 0.138639 0.800258
0.874614 0.138249 0.795340
1.000000 0.137883 0.790430
0.000000 0.264785 0.813230
0.117122 0.264330 0.808311
0.244912 0.263900 0.803388
0.372767 0.263495 0.798467
0.500683 0.263113 0.793552
0.628657 0.262756 0.788646
0.756685 0.262422 0.783752
0.884765 0.262112 0.778875
1.000000 0.261826 0.774018
0.000000 0.388353 0.796677
0.126759 0.387980 0.791764
0.254753 0.387631 0.786862
0.382801 0.387306 0.781975
0.510899 0.387005 0.777105
0.639044 0.386728 0.772255
0.767235 0.386474 0.767431
0.895469 0.386244 0.762634
1.000000 0.386038 0.757867
0.008923 0.512194 0.780199
0.137038 0.511901 0.775337
0.265201 0.511632 0.770496
0.393408 0.511387 0.765681
0.521656 0.511166 0.760895
0.649945 0.510969 0.756141
0.778271 0.510796 0.751422
0.906632 0.510648 0.746744
1.000000 0.510525 0.742108
0.019586 0.636304 0.763935
0.147849 0.636092 0.759160
0.276152 0.635903 0.754419
0.404491 0.635739 0.749714
0.532864 0.635600 0.745051
0.661270 0.635486 0.740432
0.789706 0.635398 0.735862
0.918170 0.635335 0.731345
1.000000 0.635299 0.726886
0.030715 0.760686 0.748012
0.159100 0.760556 0.743364
0.287518 0.760451 0.738762
0.415964 0.760372 0.734211
0.544438 0.760319 0.729714
0.672937 0.760293 0.725278
0.801459 0.760294 0.720906
0.930001 0.760324 0.716606
1.000000 0.760384 0.712385
0.042226 0.885349 0.732567
0.170709 0.885306 0.728092
0.299217 0.885290 0.723678
0.427746 0.885302 0.719332
0.556295 0.885343 0.715060
0.684860 0.885413 0.710870
0.813438 0.885516 0.706770
0.942026 0.885652 0.702771
1.000000 0.885823 0.698888
0.054036 1.000000 0.717768
0.182591 1.000000 0.713525
0.311161 1.000000 0.709366
0.439744 1.000000 0.705302
0.568333 1.000000 0.701343
0.696926 1.000000 0.697506
0.825516 1.000000 0.693812
0.954091 1.000000 0.690292
1.000000 1.000000 0.687007
0.000000 0.018326 0.969177
0.101232 0.017691 0.964439
0.228452 0.017090 0.959644
0.355787 0.016518 0.954806
0.483224 0.015975 0.949938
0.610753 0.015459 0.945047
0.738366 0.014969 0.940140
0.866057 0.014504 0.935223
0.993820 0.014064 0.930301
0.000000 0.141317 0.953037
0.109134 0.140784 0.948159
0.236695 0.140277 0.943262
0.364337 0.139796 0.938350
0.492055 0.139341 0.933431
0.619843 0.138910 0.928509
0.747696 0.138504 0.923588
0.875611 0.138122 0.918672
1.000000 0.137764 0.913765
0.000000 0.264628 0.936560
0.118062 0.264181 0.931639
0.245874 0.263760 0.926717
0.373750 0.263362 0.921797
0.501686 0.262989 0.916884
0.629679 0.262640 0.911982
0.757725 0.262314 0.907094
0.885822 0.262012 0.902223
1.000000 0.261734 0.897374
0.000000 0.388224 0.920008
0.127770 0.387859 0.915098
0.255782 0.387518 0.910201
0.383847 0.387201 0.905319
0.511962 0.386908 0.900455
0.640123 0.386639 0.895614
0.768329 0.386393 0.890798
0.896577 0.386171 0.886011
1.000000 0.385974 0.881257
0.009975 0.512092 0.903546
0.138107 0.511807 0.898690
0.266285 0.511546 0.893858
0.394506 0.511309 0.889052
0.522769 0.511096 0.884276
0.651070 0.510908 0.879534
0.779408 0.510743 0.874829
0.907781 0.510603 0.870164
1.000000 0.510489 0.865544
0.020690 0.636229 0.887310
0.148966 0.636025 0.882546
0.277281 0.635845 0.877817
0.405632 0.635689 0.873126
0.534017 0.635559 0.868477
0.662434 0.635453 0.863874
0.790880 0.635373 0.859322
0.919353 0.635320 0.854824
1.000000 0.635293 0.850385
0.031861 0.760639 0.871428
0.160257 0.760517 0.866796
0.288685 0.760421 0.862211
0.417141 0.760351 0.857677
0.545624 0.760307 0.853201
0.674131 0.760290 0.848785
0.802660 0.760301 0.844438
0.931208 0.760341 0.840164
1.000000 0.760411 0.835971
0.043406 0.885332 0.856041
0.171898 0.885298 0.851586
0.300413 0.885291 0.847194
0.428950 0.885312 0.842873
0.557504 0.885363 0.838627
0.686074 0.885445 0.834467
0.814656 0.885558 0.830400
0.943246 0.885706 0.826439
1.000000 0.885890 0.822599
0.055242 1.000000 0.841318
0.183802 1.000000 0.837102
0.312377 1.000000 0.832975
0.440962 1.000000 0.828945
0.569554 1.000000 0.825026
0.698146 1.000000 0.821234
0.826732 1.000000 0.817595
0.955300 1.000000 0.814145
1.000000 1.000000 0.810968
0.000000 0.018106 1.000000
0.101972 0.017484 1.000000
0.229232 0.016892 1.000000
0.356603 0.016331 1.000000
0.484073 0.015797 1.000000
0.611632 0.015289 1.000000
0.739272 0.014808 1.000000
0.866988 0.014352 1.000000
0.994774 0.013921 1.000000
0.000000 0.141133 1.000000
0.109994 0.140609 1.000000
0.237584 0.140111 1.000000
0.365252 0.139639 1.000000
0.492994 0.139192 1.000000
0.620805 0.138770 1.000000
0.748679 0.138372 1.000000
0.876614 0.137998 1.000000
1.000000 0.137648 1.000000
0.000000 0.264473 1.000000
0.119010 0.264035 1.000000
0.246844 0.263622 1.000000
0.374741 0.263233 1.000000
0.502697 0.262868 1.000000
0.630708 0.262526 1.000000
0.758772 0.262209 1.000000
0.886885 0.261915 1.000000
1.000000 0.261645 1.000000
0.000810 0.388097 1.000000
0.128787 0.387741 1.000000
0.256817 0.387408 1.000000
0.384899 0.387099 1.000000
0.513030 0.386814 1.000000
0.641207 0.386553 1.000000
0.769427 0.386315 1.000000
0.897689 0.386101 1.000000
1.000000 0.385912 1.000000
0.011034 0.511993 1.000000
0.139181 0.511716 1.000000
0.267374 0.511463 1.000000
0.395610 0.511234 1.000000
0.523886 0.511030 1.000000
0.652200 0.510849 1.000000
0.780550 0.510693 0.998240
0.908934 0.510562 0.993590
1.000000 0.510455 0.988986
0.021798 0.636157 1.000000
0.150088 0.635961 1.000000
0.278416 0.635789 1.000000
0.406778 0.635642 0.996542
0.535174 0.635520 0.991909
0.663601 0.635423 0.987322
0.792056 0.635352 0.982788
0.920538 0.635308 0.978309
1.000000 0.635290 0.973893
0.033011 0.760595 0.994850
0.161418 0.760482 0.990233
0.289856 0.760394 0.985665
0.418321 0.760333 0.981151
0.546812 0.760298 0.976694
0.675327 0.760291 0.972301
0.803863 0.760311 0.967978
0.932417 0.760362 0.963730
1.000000 0.760442 0.959567
0.044589 0.885317 0.979521
0.173089 0.885292 0.975087
0.301612 0.885295 0.970719
0.430155 0.885326 0.966422
0.558715 0.885387 0.962205
0.687289 0.885479 0.958074
0.815874 0.885604 0.954042
0.944466 0.885764 0.950120
1.000000 0.885962 0.946325
0.056449 1.000000 0.964877
0.185015 1.000000 0.960690
0.313593 1.000000 0.956594
0.442181 1.000000 0.952601
0.570774 1.000000 0.948723
0.699365 1.000000 0.944980
0.827947 1.000000 0.941399
0.956504 1.000000 0.938029
1.000000 1.000000 0.935000
