visual_library/02_LUTs_and_Grading/LUT_bw_film.cube
TITLE "bw_film"
LUT_3D_SIZE 33
DOMAIN_MIN 0 0 0
DOMAIN_MAX 1 1 1
0.000000 0.000000 0.000000
0.000000 0.000000 0.000000
0.000000 0.000000 0.000000
0.003188 0.003188 0.003188
0.014250 0.014250 0.014250
0.025313 0.025313 0.025313
0.036375 0.036375 0.036375
0.047437 0.047437 0.047437
0.058500 0.058500 0.058500
0.069562 0.069562 0.069562
0.080625 0.080625 0.080625
0.091688 0.091688 0.091688
0.102750 0.102750 0.102750
0.113813 0.113813 0.113813
0.124875 0.124875 0.124875
0.135938 0.135938 0.135938
0.147000 0.147000 0.147000
0.158062 0.158062 0.158062
0.169125 0.169125 0.169125
0.180188 0.180188 0.180188
0.191250 0.191250 0.191250
0.202313 0.202313 0.202313
0.213375 0.213375 0.213375
0.224437 0.224437 0.224437
0.235500 0.235500 0.235500
0.246563 0.246563 0.246563
0.257625 0.257625 0.257625
0.268688 0.268688 0.268688
0.279750 0.279750 0.279750
0.290812 0.290812 0.290812
0.301875 0.301875 0.301875
0.312937 0.312937 0.312937
0.324000 0.324000 0.324000
0.000000 0.000000 0.000000
0.002819 0.002819 0.002819
0.013881 0.013881 0.013881
0.024944 0.024944 0.024944
0.036006 0.036006 0.036006
0.047069 0.047069 0.047069
0.058131 0.058131 0.058131
0.069194 0.069194 0.069194
0.080256 0.080256 0.080256
0.091319 0.091319 0.091319
0.102381 0.102381 0.102381
0.113444 0.113444 0.113444
0.124506 0.124506 0.124506
0.135569 0.135569 0.135569
0.146631 0.146631 0.146631
0.157694 0.157694 0.157694
0.168756 0.168756 0.168756
0.179819 0.179819 0.179819
0.190881 0.190881 0.190881
0.201944 0.201944 0.201944
0.213006 0.213006 0.213006
0.224069 0.224069 0.224069
0.235131 0.235131 0.235131
0.246194 0.246194 0.246194
0.257256 0.257256 0.257256
0.268319 0.268319 0.268319
0.279381 0.279381 0.279381
0.290444 0.290444 0.290444
0.301506 0.301506 0.301506
0.312569 0.312569 0.312569
0.323631 0.323631 0.323631
0.334694 0.334694 0.334694
0.345756 0.345756 0.345756
0.013512 0.013512 0.013512
0.024575 0.024575 0.024575
0.035638 0.035638 0.035638
0.046700 0.046700 0.046700
0.057762 0.057762 0.057762
0.068825 0.068825 0.068825
0.079888 0.079888 0.079888
0.090950 0.090950 0.090950
0.102013 0.102013 0.102013
0.113075 0.113075 0.113075
0.124138 0.124138 0.124138
0.135200 0.135200 0.135200
0.146263 0.146263 0.146263
0.157325 0.157325 0.157325
0.168387 0.168387 0.168387
0.179450 0.179450 0.179450
0.190513 0.190513 0.190513
0.201575 0.201575 0.201575
0.212637 0.212637 0.212637
0.223700 0.223700 0.223700
0.234762 0.234762 0.234762
0.245825 0.245825 0.245825
0.256887 0.256887 0.256887
0.267950 0.267950 0.267950
0.279012 0.279012 0.279012
0.290075 0.290075 0.290075
0.301138 0.301138 0.301138
0.312200 0.312200 0.312200
0.323263 0.323263 0.323263
0.334325 0.334325 0.334325
0.345388 0.345388 0.345388
0.356450 0.356450 0.356450
0.367512 0.367512 0.367512
0.035269 0.035269 0.035269
0.046331 0.046331 0.046331
0.057394 0.057394 0.057394
0.068456 0.068456 0.068456
0.079519 0.079519 0.079519
0.090581 0.090581 0.090581
0.101644 0.101644 0.101644
0.112706 0.112706 0.112706
0.123769 0.123769 0.123769
0.134831 0.134831 0.134831
0.145894 0.145894 0.145894
0.156956 0.156956 0.156956
0.168019 0.168019 0.168019
0.179081 0.179081 0.179081
0.190144 0.190144 0.190144
0.201206 0.201206 0.201206
0.212269 0.212269 0.212269
0.223331 0.223331 0.223331
0.234394 0.234394 0.234394
0.245456 0.245456 0.245456
0.256519 0.256519 0.256519
0.267581 0.267581 0.267581
0.278644 0.278644 0.278644
0.289706 0.289706 0.289706
0.300769 0.300769 0.300769
0.311831 0.311831 0.311831
0.322894 0.322894 0.322894
0.333956 0.333956 0.333956
0.345019 0.345019 0.345019
0.356081 0.356081 0.356081
0.367144 0.367144 0.367144
0.378206 0.378206 0.378206
0.389269 0.389269 0.389269
0.057025 0.057025 0.057025
0.068088 0.068088 0.068088
0.079150 0.079150 0.079150
0.090213 0.090213 0.090213
0.101275 0.101275 0.101275
0.112337 0.112337 0.112337
0.123400 0.123400 0.123400
0.134463 0.134463 0.134463
0.145525 0.145525 0.145525
0.156587 0.156587 0.156587
0.167650 0.167650 0.167650
0.178712 0.178712 0.178712
0.189775 0.189775 0.189775
0.200838 0.200838 0.200838
0.211900 0.211900 0.211900
0.222963 0.222963 0.222963
0.234025 0.234025 0.234025
0.245087 0.245087 0.245087
0.256150 0.256150 0.256150
0.267213 0.267213 0.267213
0.278275 0.278275 0.278275
0.289338 0.289338 0.289338
0.300400 0.300400 0.300400
0.311463 0.311463 0.311463
0.322525 0.322525 0.322525
0.333587 0.333587 0.333587
0.344650 0.344650 0.344650
0.355712 0.355712 0.355712
0.366775 0.366775 0.366775
0.377837 0.377837 0.377837
0.388900 0.388900 0.388900
0.399962 0.399962 0.399962
0.411025 0.411025 0.411025
0.078781 0.078781 0.078781
0.089844 0.089844 0.089844
0.100906 0.100906 0.100906
0.111969 0.111969 0.111969
0.123031 0.123031 0.123031
0.134094 0.134094 0.134094
0.145156 0.145156 0.145156
0.156219 0.156219 0.156219
0.167281 0.167281 0.167281
0.178344 0.178344 0.178344
0.189406 0.189406 0.189406
0.200469 0.200469 0.200469
0.211531 0.211531 0.211531
0.222594 0.222594 0.222594
0.233656 0.233656 0.233656
0.244719 0.244719 0.244719
0.255781 0.255781 0.255781
0.266844 0.266844 0.266844
0.277906 0.277906 0.277906
0.288969 0.288969 0.288969
0.300031 0.300031 0.300031
0.311094 0.311094 0.311094
0.322156 0.322156 0.322156
0.333219 0.333219 0.333219
0.344281 0.344281 0.344281
0.355344 0.355344 0.355344
0.366406 0.366406 0.366406
0.377469 0.377469 0.377469
0.388531 0.388531 0.388531
0.399594 0.399594 0.399594
0.410656 0.410656 0.410656
0.421719 0.421719 0.421719
0.432781 0.432781 0.432781
0.100538 0.100538 0.100538
0.111600 0.111600 0.111600
0.122663 0.122663 0.122663
0.133725 0.133725 0.133725
0.144788 0.144788 0.144788
0.155850 0.155850 0.155850
0.166913 0.166913 0.166913
0.177975 0.177975 0.177975
0.189038 0.189038 0.189038
0.200100 0.200100 0.200100
0.211162 0.211162 0.211162
0.222225 0.222225 0.222225
0.233288 0.233288 0.233288
0.244350 0.244350 0.244350
0.255413 0.255413 0.255413
0.266475 0.266475 0.266475
0.277537 0.277537 0.277537
0.288600 0.288600 0.288600
0.299662 0.299662 0.299662
0.310725 0.310725 0.310725
0.321787 0.321787 0.321787
0.332850 0.332850 0.332850
0.343913 0.343913 0.343913
0.354975 0.354975 0.354975
0.366037 0.366037 0.366037
0.377100 0.377100 0.377100
0.388163 0.388163 0.388163
0.399225 0.399225 0.399225
0.410288 0.410288 0.410288
0.421350 0.421350 0.421350
0.432412 0.432412 0.432412
0.443475 0.443475 0.443475
0.454538 0.454538 0.454538
0.122294 0.122294 0.122294
0.133356 0.133356 0.133356
0.144419 0.144419 0.144419
0.155481 0.155481 0.155481
0.166544 0.166544 0.166544
0.177606 0.177606 0.177606
0.188669 0.188669 0.188669
0.199731 0.199731 0.199731
0.210794 0.210794 0.210794
0.221856 0.221856 0.221856
0.232919 0.232919 0.232919
0.243981 0.243981 0.243981
0.255044 0.255044 0.255044
0.266106 0.266106 0.266106
0.277169 0.277169 0.277169
0.288231 0.288231 0.288231
0.299294 0.299294 0.299294
0.310356 0.310356 0.310356
0.321419 0.321419 0.321419
0.332481 0.332481 0.332481
0.343544 0.343544 0.343544
0.354606 0.354606 0.354606
0.365669 0.365669 0.365669
0.376731 0.376731 0.376731
0.387794 0.387794 0.387794
0.398856 0.398856 0.398856
0.409919 0.409919 0.409919
0.420981 0.420981 0.420981
0.432044 0.432044 0.432044
0.443106 0.443106 0.443106
0.454169 0.454169 0.454169
0.465231 0.465231 0.465231
0.476294 0.476294 0.476294
0.144050 0.144050 0.144050
0.155112 0.155112 0.155112
0.166175 0.166175 0.166175
0.177237 0.177237 0.177237
0.188300 0.188300 0.188300
0.199362 0.199362 0.199362
0.210425 0.210425 0.210425
0.221488 0.221488 0.221488
0.232550 0.232550 0.232550
0.243613 0.243613 0.243613
0.254675 0.254675 0.254675
0.265738 0.265738 0.265738
0.276800 0.276800 0.276800
0.287862 0.287862 0.287862
0.298925 0.298925 0.298925
0.309987 0.309987 0.309987
0.321050 0.321050 0.321050
0.332113 0.332113 0.332113
0.343175 0.343175 0.343175
0.354238 0.354238 0.354238
0.365300 0.365300 0.365300
0.376362 0.376362 0.376362
0.387425 0.387425 0.387425
0.398487 0.398487 0.398487
0.409550 0.409550 0.409550
0.420613 0.420613 0.420613
0.431675 0.431675 0.431675
0.442738 0.442738 0.442738
0.453800 0.453800 0.453800
0.464862 0.464862 0.464862
0.475925 0.475925 0.475925
0.486987 0.486987 0.486987
0.498050 0.498050 0.498050
0.165806 0.165806 0.165806
0.176869 0.176869 0.176869
0.187931 0.187931 0.187931
0.198994 0.198994 0.198994
0.210056 0.210056 0.210056
0.221119 0.221119 0.221119
0.232181 0.232181 0.232181
0.243244 0.243244 0.243244
0.254306 0.254306 0.254306
0.265369 0.265369 0.265369
0.276431 0.276431 0.276431
0.287494 0.287494 0.287494
0.298556 0.298556 0.298556
0.309619 0.309619 0.309619
0.320681 0.320681 0.320681
0.331744 0.331744 0.331744
0.342806 0.342806 0.342806
0.353869 0.353869 0.353869
0.364931 0.364931 0.364931
0.375994 0.375994 0.375994
0.387056 0.387056 0.387056
0.398119 0.398119 0.398119
0.409181 0.409181 0.409181
0.420244 0.420244 0.420244
0.431306 0.431306 0.431306
0.442369 0.442369 0.442369
0.453431 0.453431 0.453431
0.464494 0.464494 0.464494
0.475556 0.475556 0.475556
0.486619 0.486619 0.486619
0.497681 0.497681 0.497681
0.508744 0.508744 0.508744
0.519806 0.519806 0.519806
0.187562 0.187562 0.187562
0.198625 0.198625 0.198625
0.209688 0.209688 0.209688
0.220750 0.220750 0.220750
0.231812 0.231812 0.231812
0.242875 0.242875 0.242875
0.253937 0.253937 0.253937
0.265000 0.265000 0.265000
0.276062 0.276062 0.276062
0.287125 0.287125 0.287125
0.298187 0.298187 0.298187
0.309250 0.309250 0.309250
0.320312 0.320312 0.320312
0.331375 0.331375 0.331375
0.342438 0.342438 0.342438
0.353500 0.353500 0.353500
0.364562 0.364562 0.364562
0.375625 0.375625 0.375625
0.386687 0.386687 0.386687
0.397750 0.397750 0.397750
0.408812 0.408812 0.408812
0.419875 0.419875 0.419875
0.430938 0.430938 0.430938
0.442000 0.442000 0.442000
0.453062 0.453062 0.453062
0.464125 0.464125 0.464125
0.475187 0.475187 0.475187
0.486250 0.486250 0.486250
0.497313 0.497313 0.497313
0.508375 0.508375 0.508375
0.519437 0.519437 0.519437
0.530500 0.530500 0.530500
0.541562 0.541562 0.541562
0.209319 0.209319 0.209319
0.220381 0.220381 0.220381
0.231444 0.231444 0.231444
0.242506 0.242506 0.242506
0.253569 0.253569 0.253569
0.264631 0.264631 0.264631
0.275694 0.275694 0.275694
0.286756 0.286756 0.286756
0.297819 0.297819 0.297819
0.308881 0.308881 0.308881
0.319944 0.319944 0.319944
0.331006 0.331006 0.331006
0.342069 0.342069 0.342069
0.353131 0.353131 0.353131
0.364194 0.364194 0.364194
0.375256 0.375256 0.375256
0.386319 0.386319 0.386319
0.397381 0.397381 0.397381
0.408444 0.408444 0.408444
0.419506 0.419506 0.419506
0.430569 0.430569 0.430569
0.441631 0.441631 0.441631
0.452694 0.452694 0.452694
0.463756 0.463756 0.463756
0.474819 0.474819 0.474819
0.485881 0.485881 0.485881
0.496944 0.496944 0.496944
0.508006 0.508006 0.508006
0.519069 0.519069 0.519069
0.530131 0.530131 0.530131
0.541194 0.541194 0.541194
0.552256 0.552256 0.552256
0.563319 0.563319 0.563319
0.231075 0.231075 0.231075
0.242138 0.242138 0.242138
0.253200 0.253200 0.253200
0.264263 0.264263 0.264263
0.275325 0.275325 0.275325
0.286388 0.286388 0.286388
0.297450 0.297450 0.297450
0.308513 0.308513 0.308513
0.319575 0.319575 0.319575
0.330637 0.330637 0.330637
0.341700 0.341700 0.341700
0.352762 0.352762 0.352762
0.363825 0.363825 0.363825
0.374887 0.374887 0.374887
0.385950 0.385950 0.385950
0.397013 0.397013 0.397013
0.408075 0.408075 0.408075
0.419137 0.419137 0.419137
0.430200 0.430200 0.430200
0.441263 0.441263 0.441263
0.452325 0.452325 0.452325
0.463387 0.463387 0.463387
0.474450 0.474450 0.474450
0.485513 0.485513 0.485513
0.496575 0.496575 0.496575
0.507637 0.507637 0.507637
0.518700 0.518700 0.518700
0.529762 0.529762 0.529762
0.540825 0.540825 0.540825
0.551887 0.551887 0.551887
0.562950 0.562950 0.562950
0.574013 0.574013 0.574013
0.585075 0.585075 0.585075
0.252831 0.252831 0.252831
0.263894 0.263894 0.263894
0.274956 0.274956 0.274956
0.286019 0.286019 0.286019
0.297081 0.297081 0.297081
0.308144 0.308144 0.308144
0.319206 0.319206 0.319206
0.330269 0.330269 0.330269
0.341331 0.341331 0.341331
0.352394 0.352394 0.352394
0.363456 0.363456 0.363456
0.374519 0.374519 0.374519
0.385581 0.385581 0.385581
0.396644 0.396644 0.396644
0.407706 0.407706 0.407706
0.418769 0.418769 0.418769
0.429831 0.429831 0.429831
0.440894 0.440894 0.440894
0.451956 0.451956 0.451956
0.463019 0.463019 0.463019
0.474081 0.474081 0.474081
0.485144 0.485144 0.485144
0.496206 0.496206 0.496206
0.507269 0.507269 0.507269
0.518331 0.518331 0.518331
0.529394 0.529394 0.529394
0.540456 0.540456 0.540456
0.551519 0.551519 0.551519
0.562581 0.562581 0.562581
0.573644 0.573644 0.573644
0.584706 0.584706 0.584706
0.595769 0.595769 0.595769
0.606831 0.606831 0.606831
0.274587 0.274587 0.274587
0.285650 0.285650 0.285650
0.296712 0.296712 0.296712
0.307775 0.307775 0.307775
0.318837 0.318837 0.318837
0.329900 0.329900 0.329900
0.340963 0.340963 0.340963
0.352025 0.352025 0.352025
0.363088 0.363088 0.363088
0.374150 0.374150 0.374150
0.385213 0.385213 0.385213
0.396275 0.396275 0.396275
0.407337 0.407337 0.407337
0.418400 0.418400 0.418400
0.429463 0.429463 0.429463
0.440525 0.440525 0.440525
0.451587 0.451587 0.451587
0.462650 0.462650 0.462650
0.473713 0.473713 0.473713
0.484775 0.484775 0.484775
0.495837 0.495837 0.495837
0.506900 0.506900 0.506900
0.517962 0.517962 0.517962
0.529025 0.529025 0.529025
0.540087 0.540087 0.540087
0.551150 0.551150 0.551150
0.562213 0.562213 0.562213
0.573275 0.573275 0.573275
0.584337 0.584337 0.584337
0.595400 0.595400 0.595400
0.606462 0.606462 0.606462
0.617525 0.617525 0.617525
0.628588 0.628588 0.628588
0.296344 0.296344 0.296344
0.307406 0.307406 0.307406
0.318469 0.318469 0.318469
0.329531 0.329531 0.329531
0.340594 0.340594 0.340594
0.351656 0.351656 0.351656
0.362719 0.362719 0.362719
0.373781 0.373781 0.373781
0.384844 0.384844 0.384844
0.395906 0.395906 0.395906
0.406969 0.406969 0.406969
0.418031 0.418031 0.418031
0.429094 0.429094 0.429094
0.440156 0.440156 0.440156
0.451219 0.451219 0.451219
0.462281 0.462281 0.462281
0.473344 0.473344 0.473344
0.484406 0.484406 0.484406
0.495469 0.495469 0.495469
0.506531 0.506531 0.506531
0.517594 0.517594 0.517594
0.528656 0.528656 0.528656
0.539719 0.539719 0.539719
0.550781 0.550781 0.550781
0.561844 0.561844 0.561844
0.572906 0.572906 0.572906
0.583969 0.583969 0.583969
0.595031 0.595031 0.595031
0.606094 0.606094 0.606094
0.617156 0.617156 0.617156
0.628219 0.628219 0.628219
0.639281 0.639281 0.639281
0.650344 0.650344 0.650344
0.318100 0.318100 0.318100
0.329163 0.329163 0.329163
0.340225 0.340225 0.340225
0.351288 0.351288 0.351288
0.362350 0.362350 0.362350
0.373412 0.373412 0.373412
0.384475 0.384475 0.384475
0.395537 0.395537 0.395537
0.406600 0.406600 0.406600
0.417662 0.417662 0.417662
0.428725 0.428725 0.428725
0.439787 0.439787 0.439787
0.450850 0.450850 0.450850
0.461913 0.461913 0.461913
0.472975 0.472975 0.472975
0.484037 0.484037 0.484037
0.495100 0.495100 0.495100
0.506162 0.506162 0.506162
0.517225 0.517225 0.517225
0.528288 0.528288 0.528288
0.539350 0.539350 0.539350
0.550412 0.550412 0.550412
0.561475 0.561475 0.561475
0.572537 0.572537 0.572537
0.583600 0.583600 0.583600
0.594662 0.594662 0.594662
0.605725 0.605725 0.605725
0.616788 0.616788 0.616788
0.627850 0.627850 0.627850
0.638912 0.638912 0.638912
0.649975 0.649975 0.649975
0.661037 0.661037 0.661037
0.672100 0.672100 0.672100
0.339856 0.339856 0.339856
0.350919 0.350919 0.350919
0.361981 0.361981 0.361981
0.373044 0.373044 0.373044
0.384106 0.384106 0.384106
0.395169 0.395169 0.395169
0.406231 0.406231 0.406231
0.417294 0.417294 0.417294
0.428356 0.428356 0.428356
0.439419 0.439419 0.439419
0.450481 0.450481 0.450481
0.461544 0.461544 0.461544
0.472606 0.472606 0.472606
0.483669 0.483669 0.483669
0.494731 0.494731 0.494731
0.505794 0.505794 0.505794
0.516856 0.516856 0.516856
0.527919 0.527919 0.527919
0.538981 0.538981 0.538981
0.550044 0.550044 0.550044
0.561106 0.561106 0.561106
0.572169 0.572169 0.572169
0.583231 0.583231 0.583231
0.594294 0.594294 0.594294
0.605356 0.605356 0.605356
0.616419 0.616419 0.616419
0.627481 0.627481 0.627481
0.638544 0.638544 0.638544
0.649606 0.649606 0.649606
0.660669 0.660669 0.660669
0.671731 0.671731 0.671731
0.682794 0.682794 0.682794
0.693856 0.693856 0.693856
0.361612 0.361612 0.361612
0.372675 0.372675 0.372675
0.383737 0.383737 0.383737
0.394800 0.394800 0.394800
0.405862 0.405862 0.405862
0.416925 0.416925 0.416925
0.427987 0.427987 0.427987
0.439050 0.439050 0.439050
0.450112 0.450112 0.450112
0.461175 0.461175 0.461175
0.472237 0.472237 0.472237
0.483300 0.483300 0.483300
0.494362 0.494362 0.494362
0.505425 0.505425 0.505425
0.516487 0.516487 0.516487
0.527550 0.527550 0.527550
0.538612 0.538612 0.538612
0.549675 0.549675 0.549675
0.560737 0.560737 0.560737
0.571800 0.571800 0.571800
0.582862 0.582862 0.582862
0.593925 0.593925 0.593925
0.604988 0.604988 0.604988
0.616050 0.616050 0.616050
0.627112 0.627112 0.627112
0.638175 0.638175 0.638175
0.649237 0.649237 0.649237
0.660300 0.660300 0.660300
0.671363 0.671363 0.671363
0.682425 0.682425 0.682425
0.693487 0.693487 0.693487
0.704550 0.704550 0.704550
0.715612 0.715612 0.715612
0.383369 0.383369 0.383369
0.394431 0.394431 0.394431
0.405494 0.405494 0.405494
0.416556 0.416556 0.416556
0.427619 0.427619 0.427619
0.438681 0.438681 0.438681
0.449744 0.449744 0.449744
0.460806 0.460806 0.460806
0.471869 0.471869 0.471869
0.482931 0.482931 0.482931
0.493994 0.493994 0.493994
0.505056 0.505056 0.505056
0.516119 0.516119 0.516119
0.527181 0.527181 0.527181
0.538244 0.538244 0.538244
0.549306 0.549306 0.549306
0.560369 0.560369 0.560369
0.571431 0.571431 0.571431
0.582494 0.582494 0.582494
0.593556 0.593556 0.593556
0.604619 0.604619 0.604619
0.615681 0.615681 0.615681
0.626744 0.626744 0.626744
0.637806 0.637806 0.637806
0.648869 0.648869 0.648869
0.659931 0.659931 0.659931
0.670994 0.670994 0.670994
0.682056 0.682056 0.682056
0.693119 0.693119 0.693119
0.704181 0.704181 0.704181
0.715244 0.715244 0.715244
0.726306 0.726306 0.726306
0.737369 0.737369 0.737369
0.405125 0.405125 0.405125
0.416187 0.416187 0.416187
0.427250 0.427250 0.427250
0.438312 0.438312 0.438312
0.449375 0.449375 0.449375
0.460437 0.460437 0.460437
0.471500 0.471500 0.471500
0.482562 0.482562 0.482562
0.493625 0.493625 0.493625
0.504687 0.504687 0.504687
0.515750 0.515750 0.515750
0.526812 0.526812 0.526812
0.537875 0.537875 0.537875
0.548937 0.548937 0.548937
0.560000 0.560000 0.560000
0.571062 0.571062 0.571062
0.582125 0.582125 0.582125
0.593187 0.593187 0.593187
0.604250 0.604250 0.604250
0.615312 0.615312 0.615312
0.626375 0.626375 0.626375
0.637437 0.637437 0.637437
0.648500 0.648500 0.648500
0.659563 0.659563 0.659563
0.670625 0.670625 0.670625
0.681688 0.681688 0.681688
0.692750 0.692750 0.692750
0.703812 0.703812 0.703812
0.714875 0.714875 0.714875
0.725937 0.725937 0.725937
0.737000 0.737000 0.737000
0.748062 0.748062 0.748062
0.759125 0.759125 0.759125
0.426881 0.426881 0.426881
0.437944 0.437944 0.437944
0.449006 0.449006 0.449006
0.460069 0.460069 0.460069
0.471131 0.471131 0.471131
0.482194 0.482194 0.482194
0.493256 0.493256 0.493256
0.504319 0.504319 0.504319
0.515381 0.515381 0.515381
0.526444 0.526444 0.526444
0.537506 0.537506 0.537506
0.548569 0.548569 0.548569
0.559631 0.559631 0.559631
0.570694 0.570694 0.570694
0.581756 0.581756 0.581756
0.592819 0.592819 0.592819
0.603881 0.603881 0.603881
0.614944 0.614944 0.614944
0.626006 0.626006 0.626006
0.637069 0.637069 0.637069
0.648131 0.648131 0.648131
0.659194 0.659194 0.659194
0.670256 0.670256 0.670256
0.681319 0.681319 0.681319
0.692381 0.692381 0.692381
0.703444 0.703444 0.703444
0.714506 0.714506 0.714506
0.725569 0.725569 0.725569
0.736631 0.736631 0.736631
0.747694 0.747694 0.747694
0.758756 0.758756 0.758756
0.769819 0.769819 0.769819
0.780881 0.780881 0.780881
0.448637 0.448637 0.448637
0.459700 0.459700 0.459700
0.470762 0.470762 0.470762
0.481825 0.481825 0.481825
0.492887 0.492887 0.492887
0.503950 0.503950 0.503950
0.515012 0.515012 0.515012
0.526075 0.526075 0.526075
0.537138 0.537138 0.537138
0.548200 0.548200 0.548200
0.559262 0.559262 0.559262
0.570325 0.570325 0.570325
0.581387 0.581387 0.581387
0.592450 0.592450 0.592450
0.603512 0.603512 0.603512
0.614575 0.614575 0.614575
0.625637 0.625637 0.625637
0.636700 0.636700 0.636700
0.647763 0.647763 0.647763
0.658825 0.658825 0.658825
0.669887 0.669887 0.669887
0.680950 0.680950 0.680950
0.692012 0.692012 0.692012
0.703075 0.703075 0.703075
0.714138 0.714138 0.714138
0.725200 0.725200 0.725200
0.736262 0.736262 0.736262
0.747325 0.747325 0.747325
0.758387 0.758387 0.758387
0.769450 0.769450 0.769450
0.780512 0.780512 0.780512
0.791575 0.791575 0.791575
0.802637 0.802637 0.802637
0.470394 0.470394 0.470394
0.481456 0.481456 0.481456
0.492519 0.492519 0.492519
0.503581 0.503581 0.503581
0.514644 0.514644 0.514644
0.525706 0.525706 0.525706
0.536769 0.536769 0.536769
0.547831 0.547831 0.547831
0.558894 0.558894 0.558894
0.569956 0.569956 0.569956
0.581019 0.581019 0.581019
0.592081 0.592081 0.592081
0.603144 0.603144 0.603144
0.614206 0.614206 0.614206
0.625269 0.625269 0.625269
0.636331 0.636331 0.636331
0.647394 0.647394 0.647394
0.658456 0.658456 0.658456
0.669519 0.669519 0.669519
0.680581 0.680581 0.680581
0.691644 0.691644 0.691644
0.702706 0.702706 0.702706
0.713769 0.713769 0.713769
0.724831 0.724831 0.724831
0.735894 0.735894 0.735894
0.746956 0.746956 0.746956
0.758019 0.758019 0.758019
0.769081 0.769081 0.769081
0.780144 0.780144 0.780144
0.791206 0.791206 0.791206
0.802269 0.802269 0.802269
0.813331 0.813331 0.813331
0.824394 0.824394 0.824394
0.492150 0.492150 0.492150
0.503213 0.503213 0.503213
0.514275 0.514275 0.514275
0.525338 0.525338 0.525338
0.536400 0.536400 0.536400
0.547462 0.547462 0.547462
0.558525 0.558525 0.558525
0.569588 0.569588 0.569588
0.580650 0.580650 0.580650
0.591713 0.591713 0.591713
0.602775 0.602775 0.602775
0.613838 0.613838 0.613838
0.624900 0.624900 0.624900
0.635962 0.635962 0.635962
0.647025 0.647025 0.647025
0.658087 0.658087 0.658087
0.669150 0.669150 0.669150
0.680212 0.680212 0.680212
0.691275 0.691275 0.691275
0.702338 0.702338 0.702338
0.713400 0.713400 0.713400
0.724463 0.724463 0.724463
0.735525 0.735525 0.735525
0.746587 0.746587 0.746587
0.757650 0.757650 0.757650
0.768712 0.768712 0.768712
0.779775 0.779775 0.779775
0.790837 0.790837 0.790837
0.801900 0.801900 0.801900
0.812963 0.812963 0.812963
0.824025 0.824025 0.824025
0.835087 0.835087 0.835087
0.846150 0.846150 0.846150
0.513906 0.513906 0.513906
0.524969 0.524969 0.524969
0.536031 0.536031 0.536031
0.547094 0.547094 0.547094
0.558156 0.558156 0.558156
0.569219 0.569219 0.569219
0.580281 0.580281 0.580281
0.591344 0.591344 0.591344
0.602406 0.602406 0.602406
0.613469 0.613469 0.613469
0.624531 0.624531 0.624531
0.635594 0.635594 0.635594
0.646656 0.646656 0.646656
0.657719 0.657719 0.657719
0.668781 0.668781 0.668781
0.679844 0.679844 0.679844
0.690906 0.690906 0.690906
0.701969 0.701969 0.701969
0.713031 0.713031 0.713031
0.724094 0.724094 0.724094
0.735156 0.735156 0.735156
0.746219 0.746219 0.746219
0.757281 0.757281 0.757281
0.768344 0.768344 0.768344
0.779406 0.779406 0.779406
0.790469 0.790469 0.790469
0.801531 0.801531 0.801531
0.812594 0.812594 0.812594
0.823656 0.823656 0.823656
0.834719 0.834719 0.834719
0.845781 0.845781 0.845781
0.856844 0.856844 0.856844
0.867906 0.867906 0.867906
0.535662 0.535662 0.535662
0.546725 0.546725 0.546725
0.557787 0.557787 0.557787
0.568850 0.568850 0.568850
0.579913 0.579913 0.579913
0.590975 0.590975 0.590975
0.602038 0.602038 0.602038
0.613100 0.613100 0.613100
0.624162 0.624162 0.624162
0.635225 0.635225 0.635225
0.646287 0.646287 0.646287
0.657350 0.657350 0.657350
0.668412 0.668412 0.668412
0.679475 0.679475 0.679475
0.690538 0.690538 0.690538
0.701600 0.701600 0.701600
0.712662 0.712662 0.712662
0.723725 0.723725 0.723725
0.734787 0.734787 0.734787
0.745850 0.745850 0.745850
0.756913 0.756913 0.756913
0.767975 0.767975 0.767975
0.779037 0.779037 0.779037
0.790100 0.790100 0.790100
0.801162 0.801162 0.801162
0.812225 0.812225 0.812225
0.823287 0.823287 0.823287
0.834350 0.834350 0.834350
