visual_library/02_LUTs_and_Grading/LUT_teal_orange.cube
TITLE "teal_orange"
LUT_3D_SIZE 33
DOMAIN_MIN 0 0 0
DOMAIN_MAX 1 1 1
0.000000 0.020000 0.105000
0.001595 0.019808 0.103920
0.033226 0.019621 0.102815
0.064882 0.019439 0.101694
0.096556 0.019260 0.100561
0.128247 0.019084 0.099418
0.159952 0.018912 0.098267
0.191671 0.018742 0.097109
0.223401 0.018574 0.095945
0.255143 0.018409 0.094774
0.286895 0.018246 0.093599
0.318657 0.018085 0.092418
0.350429 0.017927 0.091234
0.382209 0.017770 0.090045
0.413998 0.017616 0.088853
0.445795 0.017464 0.087657
0.477600 0.017313 0.086458
0.509412 0.017165 0.085256
0.541232 0.017018 0.084052
0.573059 0.016873 0.082845
0.604893 0.016730 0.081635
0.636734 0.016589 0.080424
0.668581 0.016450 0.079210
0.700434 0.016312 0.077995
0.732293 0.016177 0.076777
0.764158 0.016042 0.075559
0.796030 0.015910 0.074338
0.827906 0.015779 0.073117
0.859789 0.015650 0.071894
0.891676 0.015523 0.070670
0.923570 0.015397 0.069445
0.955468 0.015273 0.068219
0.987371 0.015150 0.066992
0.000000 0.050623 0.101282
0.002965 0.050446 0.100146
0.034661 0.050271 0.099000
0.066371 0.050099 0.097846
0.098094 0.049930 0.096686
0.129829 0.049764 0.095519
0.161575 0.049599 0.094347
0.193330 0.049437 0.093170
0.225096 0.049277 0.091988
0.256871 0.049120 0.090802
0.288654 0.048964 0.089611
0.320446 0.048810 0.088418
0.352246 0.048659 0.087221
0.384054 0.048509 0.086021
0.415869 0.048361 0.084818
0.447692 0.048215 0.083613
0.479521 0.048071 0.082405
0.511357 0.047929 0.081194
0.543200 0.047788 0.079982
0.575049 0.047650 0.078768
0.606905 0.047513 0.077552
0.638766 0.047378 0.076334
0.670634 0.047244 0.075115
0.702507 0.047112 0.073894
0.734386 0.046982 0.072672
0.766270 0.046854 0.071448
0.798160 0.046727 0.070224
0.830055 0.046602 0.068999
0.861955 0.046478 0.067772
0.893860 0.046356 0.066545
0.925770 0.046236 0.065318
0.957685 0.046117 0.064089
0.989605 0.046000 0.062860
0.000000 0.081288 0.097425
0.004519 0.081119 0.096262
0.036258 0.080953 0.095093
0.068008 0.080790 0.093919
0.099767 0.080629 0.092740
0.131536 0.080470 0.091556
0.163314 0.080313 0.090369
0.195101 0.080158 0.089177
0.226895 0.080005 0.087982
0.258698 0.079854 0.086784
0.290509 0.079705 0.085583
0.322327 0.079558 0.084379
0.354152 0.079413 0.083173
0.385984 0.079269 0.081964
0.417822 0.079128 0.080753
0.449668 0.078988 0.079540
0.481519 0.078850 0.078325
0.513377 0.078713 0.077109
0.545241 0.078579 0.075890
0.577110 0.078446 0.074670
0.608985 0.078315 0.073449
0.640866 0.078185 0.072227
0.672753 0.078057 0.071003
0.704644 0.077931 0.069778
0.736541 0.077807 0.068552
0.768443 0.077684 0.067326
0.800350 0.077562 0.066098
0.832262 0.077442 0.064870
0.864179 0.077324 0.063642
0.896100 0.077208 0.062413
0.928026 0.077093 0.061183
0.959957 0.076979 0.059953
0.991892 0.076867 0.058723
0.000000 0.111981 0.093490
0.006205 0.111820 0.092309
0.037977 0.111662 0.091124
0.069758 0.111506 0.089935
0.101548 0.111352 0.088743
0.133346 0.111200 0.087547
0.165151 0.111049 0.086347
0.196965 0.110901 0.085145
0.228785 0.110755 0.083941
0.260613 0.110610 0.082733
0.292447 0.110467 0.081524
0.324288 0.110326 0.080312
0.356136 0.110187 0.079098
0.387990 0.110050 0.077883
0.419850 0.109914 0.076665
0.451715 0.109780 0.075446
0.483587 0.109648 0.074226
0.515464 0.109517 0.073004
0.547347 0.109388 0.071781
0.579236 0.109261 0.070557
0.611129 0.109136 0.069332
0.643028 0.109012 0.068106
0.674932 0.108889 0.066879
0.706840 0.108768 0.065651
0.738754 0.108649 0.064423
0.770673 0.108532 0.063194
0.802596 0.108416 0.061965
0.834523 0.108301 0.060735
0.866456 0.108188 0.059505
0.898393 0.108077 0.058275
0.930334 0.107967 0.057044
0.962279 0.107859 0.055814
0.994229 0.107752 0.054583
0.000000 0.142700 0.089502
0.007996 0.142546 0.088308
0.039797 0.142395 0.087110
0.071606 0.142245 0.085910
0.103422 0.142098 0.084707
0.135245 0.141952 0.083501
0.167075 0.141808 0.082293
0.198912 0.141666 0.081083
0.230755 0.141526 0.079870
0.262605 0.141387 0.078656
0.294461 0.141250 0.077440
0.326323 0.141115 0.076222
0.358191 0.140982 0.075002
0.390065 0.140850 0.073781
0.421944 0.140720 0.072559
0.453829 0.140592 0.071336
0.485719 0.140465 0.070111
0.517615 0.140340 0.068886
0.549515 0.140217 0.067659
0.581421 0.140095 0.066432
0.613332 0.139975 0.065204
0.645247 0.139856 0.063976
0.677167 0.139739 0.062747
0.709092 0.139624 0.061517
0.741021 0.139510 0.060287
0.772955 0.139398 0.059057
0.804894 0.139287 0.057827
0.836836 0.139178 0.056596
0.868783 0.139070 0.055366
0.900734 0.138964 0.054135
0.932690 0.138859 0.052904
0.964649 0.138756 0.051674
0.996612 0.138655 0.050444
0.000000 0.173441 0.085472
0.009879 0.173294 0.084268
0.041705 0.173149 0.083062
0.073538 0.173006 0.081853
0.105377 0.172865 0.080642
0.137223 0.172725 0.079428
0.169075 0.172587 0.078213
0.200933 0.172451 0.076996
0.232797 0.172316 0.075778
0.264668 0.172184 0.074558
0.296543 0.172053 0.073336
0.328425 0.171923 0.072114
0.360311 0.171796 0.070890
0.392204 0.171670 0.069665
0.424101 0.171545 0.068439
0.456003 0.171422 0.067213
0.487911 0.171301 0.065985
0.519823 0.171181 0.064757
0.551740 0.171063 0.063528
0.583662 0.170947 0.062299
0.615589 0.170832 0.061070
0.647520 0.170719 0.059840
0.679455 0.170607 0.058609
0.711395 0.170497 0.057379
0.743340 0.170388 0.056148
0.775288 0.170281 0.054918
0.807241 0.170176 0.053687
0.839197 0.170072 0.052456
0.871158 0.169969 0.051226
0.903123 0.169868 0.049996
0.935092 0.169769 0.048766
0.967064 0.169671 0.047536
0.999040 0.169574 0.046307
0.000000 0.204204 0.081412
0.011843 0.204064 0.080200
0.043691 0.203925 0.078986
0.075546 0.203787 0.077770
0.107406 0.203652 0.076553
0.139273 0.203518 0.075334
0.171145 0.203386 0.074113
0.203023 0.203255 0.072891
0.234906 0.203127 0.071668
0.266795 0.203000 0.070444
0.298689 0.202874 0.069219
0.330588 0.202750 0.067993
0.362492 0.202628 0.066766
0.394401 0.202507 0.065538
0.426316 0.202388 0.064310
0.458234 0.202271 0.063081
0.490158 0.202155 0.061852
0.522086 0.202041 0.060622
0.554019 0.201928 0.059392
0.585956 0.201817 0.058161
0.617898 0.201707 0.056931
0.649843 0.201599 0.055700
0.681793 0.201493 0.054470
0.713747 0.201388 0.053239
0.745706 0.201284 0.052008
0.777668 0.201182 0.050778
0.809634 0.201082 0.049548
0.841604 0.200983 0.048318
0.873578 0.200885 0.047089
0.905556 0.200789 0.045859
0.937537 0.200695 0.044631
0.969522 0.200602 0.043403
1.000000 0.200511 0.042175
0.000000 0.234988 0.077327
0.013880 0.234853 0.076109
0.045748 0.234720 0.074890
0.077623 0.234588 0.073669
0.109502 0.234458 0.072446
0.141388 0.234330 0.071223
0.173279 0.234204 0.069998
0.205174 0.234079 0.068773
0.237076 0.233956 0.067546
0.268982 0.233834 0.066319
0.300893 0.233714 0.065091
0.332809 0.233595 0.063863
0.364729 0.233479 0.062633
0.396654 0.233363 0.061404
0.428584 0.233250 0.060174
0.460519 0.233137 0.058944
0.492457 0.233027 0.057713
0.524400 0.232918 0.056483
0.556348 0.232810 0.055252
0.588299 0.232704 0.054022
0.620255 0.232600 0.052791
0.652214 0.232497 0.051560
0.684178 0.232395 0.050330
0.716146 0.232295 0.049100
0.748117 0.232197 0.047870
0.780093 0.232100 0.046641
0.812072 0.232005 0.045412
0.844054 0.231911 0.044184
0.876041 0.231819 0.042956
0.908031 0.231728 0.041729
0.940024 0.231638 0.040502
0.972021 0.231550 0.039276
1.000000 0.231464 0.038051
0.000000 0.265791 0.073224
0.015983 0.265661 0.072001
0.047870 0.265534 0.070777
0.079763 0.265408 0.069552
0.111661 0.265284 0.068326
0.143564 0.265161 0.067100
0.175472 0.265040 0.065872
0.207385 0.264921 0.064644
0.239302 0.264803 0.063415
0.271224 0.264686 0.062186
0.303151 0.264572 0.060956
0.335083 0.264458 0.059726
0.367019 0.264347 0.058496
0.398959 0.264237 0.057265
0.430904 0.264128 0.056035
0.462853 0.264021 0.054804
0.494806 0.263916 0.053574
0.526763 0.263812 0.052343
0.558724 0.263710 0.051113
0.590689 0.263609 0.049882
0.622658 0.263509 0.048652
0.654631 0.263412 0.047423
0.686607 0.263315 0.046194
0.718588 0.263220 0.044965
0.750572 0.263127 0.043737
0.782560 0.263035 0.042509
0.814551 0.262945 0.041282
0.846546 0.262856 0.040056
0.878544 0.262769 0.038830
0.910545 0.262683 0.037605
0.942550 0.262598 0.036381
0.974559 0.262516 0.035158
1.000000 0.262434 0.033936
0.000000 0.296613 0.069106
0.018148 0.296489 0.067880
0.050053 0.296367 0.066653
0.081962 0.296246 0.065425
0.113877 0.296127 0.064197
0.145796 0.296010 0.062968
0.177720 0.295894 0.061738
0.209649 0.295780 0.060508
0.241582 0.295668 0.059278
0.273520 0.295557 0.058048
0.305461 0.295447 0.056817
0.337408 0.295339 0.055587
0.369358 0.295233 0.054356
0.401313 0.295128 0.053125
0.433271 0.295025 0.051895
0.465234 0.294923 0.050665
0.497200 0.294822 0.049435
0.529171 0.294724 0.048205
0.561145 0.294626 0.046975
0.593123 0.294531 0.045746
0.625105 0.294436 0.044518
0.657090 0.294343 0.043290
0.689079 0.294252 0.042062
0.721072 0.294162 0.040835
0.753068 0.294074 0.039609
0.785067 0.293987 0.038384
0.817070 0.293902 0.037159
0.849076 0.293818 0.035936
0.881085 0.293736 0.034713
0.913098 0.293655 0.033491
0.945114 0.293575 0.032271
0.977133 0.293498 0.031051
1.000000 0.293421 0.029833
0.000000 0.327453 0.064978
0.020370 0.327335 0.063749
0.052291 0.327218 0.062520
0.084217 0.327103 0.061291
0.116147 0.326989 0.060061
0.148082 0.326877 0.058830
0.180021 0.326767 0.057600
0.211964 0.326658 0.056369
0.243912 0.326550 0.055139
0.275864 0.326444 0.053908
0.307820 0.326340 0.052677
0.339780 0.326237 0.051447
0.371744 0.326136 0.050217
0.403712 0.326036 0.048987
0.435684 0.325938 0.047757
0.467660 0.325841 0.046528
0.499639 0.325746 0.045299
0.531622 0.325652 0.044070
0.563609 0.325560 0.042843
0.595599 0.325469 0.041615
0.627593 0.325380 0.040389
0.659590 0.325292 0.039163
0.691591 0.325206 0.037938
0.723595 0.325121 0.036714
0.755602 0.325038 0.035491
0.787613 0.324956 0.034268
0.819627 0.324876 0.033047
0.851644 0.324797 0.031827
0.883664 0.324720 0.030607
0.915687 0.324644 0.029389
0.947714 0.324569 0.028173
0.979743 0.324496 0.026957
1.000000 0.324425 0.025743
0.000000 0.358311 0.060843
0.022646 0.358198 0.059613
0.054582 0.358087 0.058382
0.086523 0.357977 0.057152
0.118468 0.357868 0.055921
0.150417 0.357762 0.054691
0.182371 0.357656 0.053460
0.214328 0.357553 0.052230
0.246290 0.357450 0.050999
0.278255 0.357350 0.049769
0.310224 0.357250 0.048539
0.342198 0.357153 0.047309
0.374175 0.357056 0.046080
0.406155 0.356962 0.044852
0.438140 0.356869 0.043623
0.470128 0.356777 0.042396
0.502119 0.356687 0.041169
0.534114 0.356598 0.039943
0.566113 0.356511 0.038717
0.598115 0.356425 0.037492
0.630120 0.356341 0.036268
0.662129 0.356258 0.035046
0.694141 0.356177 0.033824
0.726156 0.356097 0.032603
0.758174 0.356019 0.031383
0.790195 0.355942 0.030164
0.822220 0.355866 0.028946
0.854247 0.355793 0.027730
0.886278 0.355720 0.026515
0.918311 0.355649 0.025301
0.950348 0.355580 0.024089
0.982387 0.355512 0.022878
1.000000 0.355445 0.021669
0.000000 0.389187 0.056704
0.024972 0.389079 0.055473
0.056923 0.388973 0.054243
0.088878 0.388868 0.053012
0.120837 0.388765 0.051782
0.152800 0.388663 0.050551
0.184767 0.388563 0.049321
0.216737 0.388465 0.048091
0.248712 0.388367 0.046862
0.280690 0.388272 0.045633
0.312672 0.388178 0.044404
0.344658 0.388085 0.043176
0.376647 0.387994 0.041949
0.408640 0.387904 0.040722
0.440636 0.387816 0.039496
0.472636 0.387729 0.038271
0.504639 0.387644 0.037047
0.536646 0.387560 0.035823
0.568656 0.387478 0.034601
0.600669 0.387397 0.033379
0.632685 0.387318 0.032158
0.664704 0.387240 0.030939
0.696727 0.387164 0.029721
0.728752 0.387089 0.028503
0.760781 0.387016 0.027287
0.792813 0.386944 0.026073
0.824847 0.386874 0.024860
0.856885 0.386805 0.023648
0.888925 0.386738 0.022438
0.920968 0.386672 0.021229
0.953014 0.386607 0.020021
0.985063 0.386544 0.018816
1.000000 0.386483 0.017612
0.000000 0.420081 0.052564
0.027346 0.419978 0.051334
0.059310 0.419877 0.050103
0.091279 0.419777 0.048873
0.123251 0.419679 0.047644
0.155227 0.419582 0.046414
0.187206 0.419487 0.045186
0.219190 0.419394 0.043957
0.251177 0.419302 0.042729
0.283167 0.419211 0.041502
0.315161 0.419122 0.040276
0.347159 0.419034 0.039050
0.379160 0.418948 0.037825
0.411164 0.418863 0.036601
0.443172 0.418780 0.035378
0.475183 0.418699 0.034156
0.507197 0.418618 0.032934
0.539215 0.418540 0.031714
0.571235 0.418463 0.030495
0.603259 0.418387 0.029277
0.635286 0.418312 0.028061
0.667315 0.418240 0.026845
0.699348 0.418168 0.025631
0.731384 0.418099 0.024418
0.763422 0.418030 0.023207
0.795464 0.417963 0.021997
0.827508 0.417898 0.020789
0.859555 0.417834 0.019582
0.891604 0.417772 0.018377
0.923657 0.417711 0.017174
0.955712 0.417651 0.015972
0.987770 0.417594 0.014772
1.000000 0.417537 0.013574
0.000000 0.450991 0.048426
0.029765 0.450894 0.047196
0.061742 0.450798 0.045967
0.093723 0.450703 0.044738
0.125708 0.450610 0.043510
0.157696 0.450518 0.042283
0.189688 0.450428 0.041056
0.221683 0.450340 0.039830
0.253682 0.450253 0.038604
0.285684 0.450167 0.037379
0.317690 0.450083 0.036156
0.349699 0.450000 0.034933
0.381711 0.449919 0.033711
0.413726 0.449840 0.032490
0.445745 0.449761 0.031270
0.477767 0.449685 0.030052
0.509791 0.449610 0.028834
0.541819 0.449536 0.027618
0.573850 0.449464 0.026403
0.605884 0.449393 0.025189
0.637920 0.449324 0.023977
0.669960 0.449256 0.022766
0.702002 0.449189 0.021557
0.734048 0.449125 0.020349
0.766096 0.449061 0.019143
0.798146 0.448999 0.017939
0.830200 0.448939 0.016736
0.862256 0.448880 0.015535
0.894314 0.448823 0.014336
0.926376 0.448767 0.013139
0.958439 0.448713 0.011943
0.990506 0.448660 0.010750
1.000000 0.448608 0.009558
0.000240 0.481919 0.044291
0.032226 0.481827 0.043063
0.064216 0.481736 0.041836
0.096209 0.481646 0.040609
0.128205 0.481558 0.039383
0.160206 0.481471 0.038158
0.192209 0.481386 0.036934
0.224216 0.481303 0.035710
0.256226 0.481221 0.034488
0.288239 0.481140 0.033266
0.320256 0.481061 0.032046
0.352275 0.480983 0.030826
0.384298 0.480907 0.029608
0.416324 0.480833 0.028391
0.448353 0.480759 0.027175
0.480385 0.480688 0.025961
0.512420 0.480617 0.024748
0.544457 0.480549 0.023536
0.576498 0.480481 0.022326
0.608542 0.480416 0.021117
0.640588 0.480351 0.019910
0.672637 0.480289 0.018705
0.704688 0.480227 0.017501
0.736743 0.480167 0.016299
0.768800 0.480109 0.015098
0.800859 0.480052 0.013900
0.832922 0.479997 0.012703
0.864986 0.479943 0.011509
0.897053 0.479891 0.010316
0.929123 0.479840 0.009125
0.961195 0.479791 0.007937
0.993270 0.479743 0.006750
1.000000 0.479697 0.005566
0.002730 0.512864 0.040163
0.034728 0.512776 0.038937
0.066729 0.512690 0.037712
0.098734 0.512606 0.036488
0.130742 0.512523 0.035265
0.162753 0.512441 0.034043
0.194768 0.512361 0.032822
0.226786 0.512283 0.031602
0.258806 0.512205 0.030383
0.290830 0.512130 0.029165
0.322857 0.512056 0.027948
0.354887 0.511983 0.026733
0.386920 0.511912 0.025519
0.418956 0.511842 0.024307
0.450995 0.511774 0.023095
0.483037 0.511707 0.021886
0.515081 0.511642 0.020678
0.547128 0.511578 0.019471
0.579178 0.511516 0.018266
0.611231 0.511455 0.017063
0.643286 0.511396 0.015862
0.675344 0.511338 0.014662
0.707405 0.511282 0.013464
0.739468 0.511227 0.012268
0.771534 0.511174 0.011074
0.803602 0.511122 0.009882
0.835672 0.511072 0.008692
0.867745 0.511023 0.007505
0.899820 0.510976 0.006319
0.931898 0.510930 0.005136
0.963978 0.510886 0.003954
0.996060 0.510843 0.002776
1.000000 0.510802 0.001599
0.005260 0.543825 0.036043
0.037269 0.543743 0.034820
0.069281 0.543662 0.033598
0.101297 0.543582 0.032378
0.133316 0.543504 0.031158
0.165338 0.543428 0.029939
0.197363 0.543353 0.028722
0.229391 0.543279 0.027506
0.261422 0.543207 0.026291
0.293456 0.543136 0.025078
0.325493 0.543067 0.023866
0.357533 0.543000 0.022655
0.389576 0.542933 0.021446
0.421621 0.542869 0.020238
0.453669 0.542806 0.019032
0.485720 0.542744 0.017828
0.517774 0.542684 0.016625
0.549830 0.542625 0.015425
0.581889 0.542568 0.014226
0.613951 0.542512 0.013028
0.646015 0.542458 0.011833
0.678081 0.542405 0.010640
0.710150 0.542354 0.009449
0.742222 0.542304 0.008260
0.774295 0.542256 0.007073
0.806372 0.542209 0.005888
0.838450 0.542164 0.004705
0.870531 0.542120 0.003525
0.902614 0.542078 0.002347
0.934699 0.542038 0.001172
0.966787 0.541999 0.000000
0.998877 0.541961 0.000000
1.000000 0.541925 0.000000
0.007827 0.574804 0.031933
0.039847 0.574726 0.030714
0.071870 0.574650 0.029496
0.103896 0.574576 0.028279
0.135925 0.574503 0.027063
0.167957 0.574431 0.025849
0.199992 0.574361 0.024636
0.232030 0.574292 0.023425
0.264071 0.574225 0.022215
0.296115 0.574160 0.021006
0.328161 0.574096 0.019799
0.360211 0.574033 0.018594
0.392262 0.573972 0.017390
0.424317 0.573912 0.016188
0.456374 0.573854 0.014988
0.488434 0.573797 0.013789
0.520497 0.573742 0.012593
0.552562 0.573688 0.011399
0.584629 0.573636 0.010206
0.616699 0.573585 0.009016
0.648771 0.573536 0.007827
0.680846 0.573489 0.006641
0.712923 0.573443 0.005457
0.745002 0.573398 0.004275
0.777084 0.573355 0.003096
0.809168 0.573313 0.001919
0.841254 0.573273 0.000744
0.873342 0.573235 0.000000
0.905433 0.573198 0.000000
0.937525 0.573162 0.000000
0.969620 0.573129 0.000000
1.000000 0.573096 0.000000
1.000000 0.573066 0.000000
0.010429 0.605799 0.027836
0.042459 0.605726 0.026621
0.074493 0.605655 0.025407
0.106529 0.605586 0.024195
0.138568 0.605518 0.022984
0.170610 0.605451 0.021774
0.202654 0.605386 0.020566
0.234702 0.605323 0.019360
0.266752 0.605260 0.018155
0.298805 0.605200 0.016952
0.330861 0.605141 0.015751
0.362919 0.605083 0.014551
0.394980 0.605027 0.013354
0.427043 0.604972 0.012158
0.459109 0.604919 0.010964
0.491177 0.604868 0.009772
0.523248 0.604817 0.008583
0.555321 0.604769 0.007395
0.587397 0.604722 0.006210
0.619475 0.604676 0.005027
0.651555 0.604632 0.003846
0.683637 0.604590 0.002667
0.715722 0.604549 0.001491
0.747809 0.604509 0.000317
0.779898 0.604471 0.000000
0.811989 0.604435 0.000000
0.844083 0.604400 0.000000
0.876178 0.604367 0.000000
0.908276 0.604335 0.000000
0.940375 0.604305 0.000000
0.972477 0.604276 0.000000
1.000000 0.604249 0.000000
1.000000 0.604224 0.000000
0.013066 0.636811 0.023754
0.045106 0.636743 0.022543
0.077149 0.636677 0.021334
0.109194 0.636613 0.020127
0.141243 0.636550 0.018921
0.173294 0.636488 0.017717
0.205348 0.636428 0.016515
0.237405 0.636370 0.015314
0.269464 0.636312 0.014115
0.301525 0.636257 0.012918
0.333590 0.636203 0.011723
0.365656 0.636150 0.010530
0.397726 0.636099 0.009339
0.429797 0.636050 0.008150
0.461871 0.636001 0.006963
0.493948 0.635955 0.005779
0.526027 0.635910 0.004596
0.558108 0.635866 0.003416
0.590191 0.635824 0.002239
0.622277 0.635784 0.001063
0.654364 0.635745 0.000000
0.686454 0.635708 0.000000
0.718546 0.635672 0.000000
0.750640 0.635638 0.000000
0.782737 0.635605 0.000000
0.814835 0.635574 0.000000
0.846935 0.635544 0.000000
0.879037 0.635516 0.000000
0.911141 0.635490 0.000000
0.943247 0.635465 0.000000
0.975355 0.635442 0.000000
1.000000 0.635420 0.000000
1.000000 0.635400 0.000000
0.015735 0.667840 0.019688
0.047784 0.667777 0.018483
0.079837 0.667716 0.017279
0.111891 0.667657 0.016077
0.143949 0.667599 0.014877
0.176009 0.667542 0.013679
0.208072 0.667487 0.012483
0.240137 0.667433 0.011289
0.272204 0.667381 0.010096
0.304275 0.667331 0.008906
0.336347 0.667282 0.007718
0.368422 0.667234 0.006532
0.400499 0.667188 0.005348
0.432579 0.667144 0.004166
0.464661 0.667101 0.002987
0.496745 0.667060 0.001811
0.528831 0.667020 0.000636
0.560920 0.666981 0.000000
0.593010 0.666945 0.000000
0.625103 0.666909 0.000000
0.657198 0.666876 0.000000
0.689295 0.666844 0.000000
0.721394 0.666813 0.000000
0.753495 0.666784 0.000000
0.785598 0.666757 0.000000
0.817703 0.666731 0.000000
0.849809 0.666707 0.000000
0.881918 0.666684 0.000000
0.914028 0.666663 0.000000
0.946140 0.666644 0.000000
0.978254 0.666626 0.000000
1.000000 0.666610 0.000000
1.000000 0.666595 0.000000
0.018435 0.698885 0.015640
0.050493 0.698828 0.014441
0.082555 0.698772 0.013243
0.114618 0.698717 0.012048
0.146684 0.698664 0.010854
0.178753 0.698613 0.009663
0.210824 0.698563 0.008473
0.242897 0.698514 0.007286
0.274973 0.698467 0.006101
0.307051 0.698422 0.004918
0.339131 0.698378 0.003737
0.371214 0.698336 0.002559
0.403299 0.698295 0.001383
0.435386 0.698256 0.000209
0.467476 0.698218 0.000000
0.499567 0.698182 0.000000
0.531661 0.698147 0.000000
0.563756 0.698114 0.000000
0.595854 0.698082 0.000000
0.627954 0.698052 0.000000
0.660055 0.698024 0.000000
0.692159 0.697997 0.000000
0.724264 0.697972 0.000000
0.756372 0.697948 0.000000
0.788481 0.697926 0.000000
0.820592 0.697906 0.000000
0.852705 0.697887 0.000000
0.884819 0.697870 0.000000
0.916936 0.697854 0.000000
0.949053 0.697840 0.000000
0.981173 0.697828 0.000000
1.000000 0.697818 0.000000
1.000000 0.697809 0.000000
0.021165 0.729948 0.011613
0.053232 0.729895 0.010420
0.085301 0.729844 0.009229
0.117373 0.729795 0.008041
0.149448 0.729747 0.006854
0.181524 0.729701 0.005670
0.213603 0.729656 0.004487
0.245684 0.729612 0.003308
0.277768 0.729571 0.002130
0.309854 0.729530 0.000955
0.341942 0.729492 0.000000
0.374032 0.729454 0.000000
0.406124 0.729419 0.000000
0.438218 0.729385 0.000000
0.470315 0.729352 0.000000
0.502413 0.729321 0.000000
0.534513 0.729292 0.000000
0.566616 0.729264 0.000000
0.598720 0.729238 0.000000
0.630826 0.729213 0.000000
0.662934 0.729190 0.000000
0.695044 0.729169 0.000000
0.727156 0.729149 0.000000
0.759269 0.729130 0.000000
0.791384 0.729114 0.000000
0.823501 0.729099 0.000000
0.855620 0.729086 0.000000
0.887740 0.729074 0.000000
0.919862 0.729064 0.000000
0.951985 0.729056 0.000000
0.984110 0.729049 0.000000
1.000000 0.729045 0.000000
1.000000 0.729041 0.000000
0.023923 0.761027 0.007608
0.055998 0.760980 0.006423
0.088076 0.760934 0.005239
0.120155 0.760890 0.004058
0.152238 0.760847 0.002879
0.184322 0.760806 0.001702
0.216408 0.760766 0.000528
0.248497 0.760728 0.000000
0.280588 0.760691 0.000000
0.312681 0.760656 0.000000
0.344776 0.760623 0.000000
0.376873 0.760591 0.000000
0.408972 0.760560 0.000000
0.441074 0.760531 0.000000
0.473177 0.760504 0.000000
0.505282 0.760478 0.000000
0.537388 0.760454 0.000000
0.569497 0.760432 0.000000
0.601608 0.760411 0.000000
0.633720 0.760392 0.000000
0.665834 0.760374 0.000000
0.697950 0.760358 0.000000
0.730067 0.760344 0.000000
0.762186 0.760331 0.000000
0.794307 0.760320 0.000000
0.826429 0.760311 0.000000
0.858553 0.760303 0.000000
0.890678 0.760297 0.000000
0.922805 0.760293 0.000000
0.954933 0.760291 0.000000
0.987063 0.760290 0.000000
1.000000 0.760291 0.000000
1.000000 0.760294 0.000000
0.026708 0.792124 0.003628
0.058791 0.792082 0.002450
0.090876 0.792041 0.001274
0.122964 0.792002 0.000101
0.155053 0.791964 0.000000
0.187145 0.791928 0.000000
0.219238 0.791894 0.000000
0.251334 0.791861 0.000000
0.283432 0.791829 0.000000
0.315532 0.791800 0.000000
0.347634 0.791771 0.000000
0.379738 0.791745 0.000000
0.411843 0.791720 0.000000
0.443951 0.791696 0.000000
0.476060 0.791674 0.000000
0.508171 0.791654 0.000000
0.540284 0.791635 0.000000
0.572399 0.791618 0.000000
0.604515 0.791603 0.000000
0.636634 0.791589 0.000000
0.668753 0.791577 0.000000
0.700874 0.791567 0.000000
0.732997 0.791558 0.000000
0.765122 0.791551 0.000000
0.797248 0.791546 0.000000
0.829375 0.791542 0.000000
0.861504 0.791540 0.000000
0.893634 0.791540 0.000000
0.925765 0.791542 0.000000
0.957898 0.791545 0.000000
0.990032 0.791550 0.000000
1.000000 0.791557 0.000000
1.000000 0.791566 0.000000
0.029519 0.823238 0.000000
0.061609 0.823201 0.000000
0.093702 0.823166 0.000000
0.125796 0.823132 0.000000
0.157893 0.823099 0.000000
0.189991 0.823068 0.000000
0.222092 0.823039 0.000000
0.254194 0.823011 0.000000
0.286299 0.822985 0.000000
0.318405 0.822961 0.000000
0.350514 0.822938 0.000000
0.382624 0.822917 0.000000
0.414735 0.822897 0.000000
0.446849 0.822879 0.000000
0.478964 0.822862 0.000000
0.511081 0.822848 0.000000
0.543200 0.822835 0.000000
0.575320 0.822823 0.000000
0.607442 0.822813 0.000000
0.639565 0.822805 0.000000
0.671690 0.822799 0.000000
0.703817 0.822794 0.000000
0.735945 0.822791 0.000000
0.768074 0.822790 0.000000
0.800204 0.822790 0.000000
0.832336 0.822793 0.000000
0.864469 0.822797 0.000000
0.896604 0.822803 0.000000
