visual_library/02_LUTs_and_Grading/LUT_bw_film.cube
TITLE "bw_film"
LUT_3D_SIZE 9
DOMAIN_MIN 0 0 0
DOMAIN_MAX 1 1 1
0.000000 0.000000 0.000000
0.014250 0.014250 0.014250
0.058500 0.058500 0.058500
0.102750 0.102750 0.102750
0.147000 0.147000 0.147000
0.191250 0.191250 0.191250
0.235500 0.235500 0.235500
0.279750 0.279750 0.279750
0.324000 0.324000 0.324000
0.057025 0.057025 0.057025
0.101275 0.101275 0.101275
0.145525 0.145525 0.145525
0.189775 0.189775 0.189775
0.234025 0.234025 0.234025
0.278275 0.278275 0.278275
0.322525 0.322525 0.322525
0.366775 0.366775 0.366775
0.411025 0.411025 0.411025
0.144050 0.144050 0.144050
0.188300 0.188300 0.188300
0.232550 0.232550 0.232550
0.276800 0.276800 0.276800
0.321050 0.321050 0.321050
0.365300 0.365300 0.365300
0.409550 0.409550 0.409550
0.453800 0.453800 0.453800
0.498050 0.498050 0.498050
0.231075 0.231075 0.231075
0.275325 0.275325 0.275325
0.319575 0.319575 0.319575
0.363825 0.363825 0.363825
0.408075 0.408075 0.408075
0.452325 0.452325 0.452325
0.496575 0.496575 0.496575
0.540825 0.540825 0.540825
0.585075 0.585075 0.585075
0.318100 0.318100 0.318100
0.362350 0.362350 0.362350
0.406600 0.406600 0.406600
0.450850 0.450850 0.450850
0.495100 0.495100 0.495100
0.539350 0.539350 0.539350
0.583600 0.583600 0.583600
0.627850 0.627850 0.627850
0.672100 0.672100 0.672100
0.405125 0.405125 0.405125
0.449375 0.449375 0.449375
0.493625 0.493625 0.493625
0.537875 0.537875 0.537875
0.582125 0.582125 0.582125
0.626375 0.626375 0.626375
0.670625 0.670625 0.670625
0.714875 0.714875 0.714875
0.759125 0.759125 0.759125
0.492150 0.492150 0.492150
0.536400 0.536400 0.536400
0.580650 0.580650 0.580650
0.624900 0.624900 0.624900
0.669150 0.669150 0.669150
0.713400 0.713400 0.713400
0.757650 0.757650 0.757650
0.801900 0.801900 0.801900
0.846150 0.846150 0.846150
0.579175 0.579175 0.579175
0.623425 0.623425 0.623425
0.667675 0.667675 0.667675
0.711925 0.711925 0.711925
0.756175 0.756175 0.756175
0.800425 0.800425 0.800425
0.844675 0.844675 0.844675
0.888925 0.888925 0.888925
0.933175 0.933175 0.933175
0.666200 0.666200 0.666200
0.710450 0.710450 0.710450
0.754700 0.754700 0.754700
0.798950 0.798950 0.798950
0.843200 0.843200 0.843200
0.887450 0.887450 0.887450
0.931700 0.931700 0.931700
0.975950 0.975950 0.975950
1.000000 1.000000 1.000000
0.000000 0.000000 0.000000
0.030475 0.030475 0.030475
0.074725 0.074725 0.074725
0.118975 0.118975 0.118975
0.163225 0.163225 0.163225
0.207475 0.207475 0.207475
0.251725 0.251725 0.251725
0.295975 0.295975 0.295975
0.340225 0.340225 0.340225
0.073250 0.073250 0.073250
0.117500 0.117500 0.117500
0.161750 0.161750 0.161750
0.206000 0.206000 0.206000
0.250250 0.250250 0.250250
0.294500 0.294500 0.294500
0.338750 0.338750 0.338750
0.383000 0.383000 0.383000
0.427250 0.427250 0.427250
0.160275 0.160275 0.160275
0.204525 0.204525 0.204525
0.248775 0.248775 0.248775
0.293025 0.293025 0.293025
0.337275 0.337275 0.337275
0.381525 0.381525 0.381525
0.425775 0.425775 0.425775
0.470025 0.470025 0.470025
0.514275 0.514275 0.514275
0.247300 0.247300 0.247300
0.291550 0.291550 0.291550
0.335800 0.335800 0.335800
0.380050 0.380050 0.380050
0.424300 0.424300 0.424300
0.468550 0.468550 0.468550
0.512800 0.512800 0.512800
0.557050 0.557050 0.557050
0.601300 0.601300 0.601300
0.334325 0.334325 0.334325
0.378575 0.378575 0.378575
0.422825 0.422825 0.422825
0.467075 0.467075 0.467075
0.511325 0.511325 0.511325
0.555575 0.555575 0.555575
0.599825 0.599825 0.599825
0.644075 0.644075 0.644075
0.688325 0.688325 0.688325
0.421350 0.421350 0.421350
0.465600 0.465600 0.465600
0.509850 0.509850 0.509850
0.554100 0.554100 0.554100
0.598350 0.598350 0.598350
0.642600 0.642600 0.642600
0.686850 0.686850 0.686850
0.731100 0.731100 0.731100
0.775350 0.775350 0.775350
0.508375 0.508375 0.508375
0.552625 0.552625 0.552625
0.596875 0.596875 0.596875
0.641125 0.641125 0.641125
0.685375 0.685375 0.685375
0.729625 0.729625 0.729625
0.773875 0.773875 0.773875
0.818125 0.818125 0.818125
0.862375 0.862375 0.862375
0.595400 0.595400 0.595400
0.639650 0.639650 0.639650
0.683900 0.683900 0.683900
0.728150 0.728150 0.728150
0.772400 0.772400 0.772400
0.816650 0.816650 0.816650
0.860900 0.860900 0.860900
0.905150 0.905150 0.905150
0.949400 0.949400 0.949400
0.682425 0.682425 0.682425
0.726675 0.726675 0.726675
0.770925 0.770925 0.770925
0.815175 0.815175 0.815175
0.859425 0.859425 0.859425
0.903675 0.903675 0.903675
0.947925 0.947925 0.947925
0.992175 0.992175 0.992175
1.000000 1.000000 1.000000
0.002450 0.002450 0.002450
0.046700 0.046700 0.046700
0.090950 0.090950 0.090950
0.135200 0.135200 0.135200
0.179450 0.179450 0.179450
0.223700 0.223700 0.223700
0.267950 0.267950 0.267950
0.312200 0.312200 0.312200
0.356450 0.356450 0.356450
0.089475 0.089475 0.089475
0.133725 0.133725 0.133725
0.177975 0.177975 0.177975
0.222225 0.222225 0.222225
0.266475 0.266475 0.266475
0.310725 0.310725 0.310725
0.354975 0.354975 0.354975
0.399225 0.399225 0.399225
0.443475 0.443475 0.443475
0.176500 0.176500 0.176500
0.220750 0.220750 0.220750
0.265000 0.265000 0.265000
0.309250 0.309250 0.309250
0.353500 0.353500 0.353500
0.397750 0.397750 0.397750
0.442000 0.442000 0.442000
0.486250 0.486250 0.486250
0.530500 0.530500 0.530500
0.263525 0.263525 0.263525
0.307775 0.307775 0.307775
0.352025 0.352025 0.352025
0.396275 0.396275 0.396275
0.440525 0.440525 0.440525
0.484775 0.484775 0.484775
0.529025 0.529025 0.529025
0.573275 0.573275 0.573275
0.617525 0.617525 0.617525
0.350550 0.350550 0.350550
0.394800 0.394800 0.394800
0.439050 0.439050 0.439050
0.483300 0.483300 0.483300
0.527550 0.527550 0.527550
0.571800 0.571800 0.571800
0.616050 0.616050 0.616050
0.660300 0.660300 0.660300
0.704550 0.704550 0.704550
0.437575 0.437575 0.437575
0.481825 0.481825 0.481825
0.526075 0.526075 0.526075
0.570325 0.570325 0.570325
0.614575 0.614575 0.614575
0.658825 0.658825 0.658825
0.703075 0.703075 0.703075
0.747325 0.747325 0.747325
0.791575 0.791575 0.791575
0.524600 0.524600 0.524600
0.568850 0.568850 0.568850
0.613100 0.613100 0.613100
0.657350 0.657350 0.657350
0.701600 0.701600 0.701600
0.745850 0.745850 0.745850
0.790100 0.790100 0.790100
0.834350 0.834350 0.834350
0.878600 0.878600 0.878600
0.611625 0.611625 0.611625
0.655875 0.655875 0.655875
0.700125 0.700125 0.700125
0.744375 0.744375 0.744375
0.788625 0.788625 0.788625
0.832875 0.832875 0.832875
0.877125 0.877125 0.877125
0.921375 0.921375 0.921375
0.965625 0.965625 0.965625
0.698650 0.698650 0.698650
0.742900 0.742900 0.742900
0.787150 0.787150 0.787150
0.831400 0.831400 0.831400
0.875650 0.875650 0.875650
0.919900 0.919900 0.919900
0.964150 0.964150 0.964150
1.000000 1.000000 1.000000
1.000000 1.000000 1.000000
0.018675 0.018675 0.018675
0.062925 0.062925 0.062925
0.107175 0.107175 0.107175
0.151425 0.151425 0.151425
0.195675 0.195675 0.195675
0.239925 0.239925 0.239925
0.284175 0.284175 0.284175
0.328425 0.328425 0.328425
0.372675 0.372675 0.372675
0.105700 0.105700 0.105700
0.149950 0.149950 0.149950
0.194200 0.194200 0.194200
0.238450 0.238450 0.238450
0.282700 0.282700 0.282700
0.326950 0.326950 0.326950
0.371200 0.371200 0.371200
0.415450 0.415450 0.415450
0.459700 0.459700 0.459700
0.192725 0.192725 0.192725
0.236975 0.236975 0.236975
0.281225 0.281225 0.281225
0.325475 0.325475 0.325475
0.369725 0.369725 0.369725
0.413975 0.413975 0.413975
0.458225 0.458225 0.458225
0.502475 0.502475 0.502475
0.546725 0.546725 0.546725
0.279750 0.279750 0.279750
0.324000 0.324000 0.324000
0.368250 0.368250 0.368250
0.412500 0.412500 0.412500
0.456750 0.456750 0.456750
0.501000 0.501000 0.501000
0.545250 0.545250 0.545250
0.589500 0.589500 0.589500
0.633750 0.633750 0.633750
0.366775 0.366775 0.366775
0.411025 0.411025 0.411025
0.455275 0.455275 0.455275
0.499525 0.499525 0.499525
0.543775 0.543775 0.543775
0.588025 0.588025 0.588025
0.632275 0.632275 0.632275
0.676525 0.676525 0.676525
0.720775 0.720775 0.720775
0.453800 0.453800 0.453800
0.498050 0.498050 0.498050
0.542300 0.542300 0.542300
0.586550 0.586550 0.586550
0.630800 0.630800 0.630800
0.675050 0.675050 0.675050
0.719300 0.719300 0.719300
0.763550 0.763550 0.763550
0.807800 0.807800 0.807800
0.540825 0.540825 0.540825
0.585075 0.585075 0.585075
0.629325 0.629325 0.629325
0.673575 0.673575 0.673575
0.717825 0.717825 0.717825
0.762075 0.762075 0.762075
0.806325 0.806325 0.806325
0.850575 0.850575 0.850575
0.894825 0.894825 0.894825
0.627850 0.627850 0.627850
0.672100 0.672100 0.672100
0.716350 0.716350 0.716350
0.760600 0.760600 0.760600
0.804850 0.804850 0.804850
0.849100 0.849100 0.849100
0.893350 0.893350 0.893350
0.937600 0.937600 0.937600
0.981850 0.981850 0.981850
0.714875 0.714875 0.714875
0.759125 0.759125 0.759125
0.803375 0.803375 0.803375
0.847625 0.847625 0.847625
0.891875 0.891875 0.891875
0.936125 0.936125 0.936125
0.980375 0.980375 0.980375
1.000000 1.000000 1.000000
1.000000 1.000000 1.000000
0.034900 0.034900 0.034900
0.079150 0.079150 0.079150
0.123400 0.123400 0.123400
0.167650 0.167650 0.167650
0.211900 0.211900 0.211900
0.256150 0.256150 0.256150
0.300400 0.300400 0.300400
0.344650 0.344650 0.344650
0.388900 0.388900 0.388900
0.121925 0.121925 0.121925
0.166175 0.166175 0.166175
0.210425 0.210425 0.210425
0.254675 0.254675 0.254675
0.298925 0.298925 0.298925
0.343175 0.343175 0.343175
0.387425 0.387425 0.387425
0.431675 0.431675 0.431675
0.475925 0.475925 0.475925
0.208950 0.208950 0.208950
0.253200 0.253200 0.253200
0.297450 0.297450 0.297450
0.341700 0.341700 0.341700
0.385950 0.385950 0.385950
0.430200 0.430200 0.430200
0.474450 0.474450 0.474450
0.518700 0.518700 0.518700
0.562950 0.562950 0.562950
0.295975 0.295975 0.295975
0.340225 0.340225 0.340225
0.384475 0.384475 0.384475
0.428725 0.428725 0.428725
0.472975 0.472975 0.472975
0.517225 0.517225 0.517225
0.561475 0.561475 0.561475
0.605725 0.605725 0.605725
0.649975 0.649975 0.649975
0.383000 0.383000 0.383000
0.427250 0.427250 0.427250
0.471500 0.471500 0.471500
0.515750 0.515750 0.515750
0.560000 0.560000 0.560000
0.604250 0.604250 0.604250
0.648500 0.648500 0.648500
0.692750 0.692750 0.692750
0.737000 0.737000 0.737000
0.470025 0.470025 0.470025
0.514275 0.514275 0.514275
0.558525 0.558525 0.558525
0.602775 0.602775 0.602775
0.647025 0.647025 0.647025
0.691275 0.691275 0.691275
0.735525 0.735525 0.735525
0.779775 0.779775 0.779775
0.824025 0.824025 0.824025
0.557050 0.557050 0.557050
0.601300 0.601300 0.601300
0.645550 0.645550 0.645550
0.689800 0.689800 0.689800
0.734050 0.734050 0.734050
0.778300 0.778300 0.778300
0.822550 0.822550 0.822550
0.866800 0.866800 0.866800
0.911050 0.911050 0.911050
0.644075 0.644075 0.644075
0.688325 0.688325 0.688325
0.732575 0.732575 0.732575
0.776825 0.776825 0.776825
0.821075 0.821075 0.821075
0.865325 0.865325 0.865325
0.909575 0.909575 0.909575
0.953825 0.953825 0.953825
0.998075 0.998075 0.998075
0.731100 0.731100 0.731100
0.775350 0.775350 0.775350
0.819600 0.819600 0.819600
0.863850 0.863850 0.863850
0.908100 0.908100 0.908100
0.952350 0.952350 0.952350
0.996600 0.996600 0.996600
1.000000 1.000000 1.000000
1.000000 1.000000 1.000000
0.051125 0.051125 0.051125
0.095375 0.095375 0.095375
0.139625 0.139625 0.139625
0.183875 0.183875 0.183875
0.228125 0.228125 0.228125
0.272375 0.272375 0.272375
0.316625 0.316625 0.316625
0.360875 0.360875 0.360875
0.405125 0.405125 0.405125
0.138150 0.138150 0.138150
0.182400 0.182400 0.182400
0.226650 0.226650 0.226650
0.270900 0.270900 0.270900
0.315150 0.315150 0.315150
0.359400 0.359400 0.359400
0.403650 0.403650 0.403650
0.447900 0.447900 0.447900
0.492150 0.492150 0.492150
0.225175 0.225175 0.225175
0.269425 0.269425 0.269425
0.313675 0.313675 0.313675
0.357925 0.357925 0.357925
0.402175 0.402175 0.402175
0.446425 0.446425 0.446425
0.490675 0.490675 0.490675
0.534925 0.534925 0.534925
0.579175 0.579175 0.579175
0.312200 0.312200 0.312200
0.356450 0.356450 0.356450
0.400700 0.400700 0.400700
0.444950 0.444950 0.444950
0.489200 0.489200 0.489200
0.533450 0.533450 0.533450
0.577700 0.577700 0.577700
0.621950 0.621950 0.621950
0.666200 0.666200 0.666200
0.399225 0.399225 0.399225
0.443475 0.443475 0.443475
0.487725 0.487725 0.487725
0.531975 0.531975 0.531975
0.576225 0.576225 0.576225
0.620475 0.620475 0.620475
0.664725 0.664725 0.664725
0.708975 0.708975 0.708975
0.753225 0.753225 0.753225
0.486250 0.486250 0.486250
0.530500 0.530500 0.530500
0.574750 0.574750 0.574750
0.619000 0.619000 0.619000
0.663250 0.663250 0.663250
0.707500 0.707500 0.707500
0.751750 0.751750 0.751750
0.796000 0.796000 0.796000
0.840250 0.840250 0.840250
0.573275 0.573275 0.573275
0.617525 0.617525 0.617525
0.661775 0.661775 0.661775
0.706025 0.706025 0.706025
0.750275 0.750275 0.750275
0.794525 0.794525 0.794525
0.838775 0.838775 0.838775
0.883025 0.883025 0.883025
0.927275 0.927275 0.927275
0.660300 0.660300 0.660300
0.704550 0.704550 0.704550
0.748800 0.748800 0.748800
0.793050 0.793050 0.793050
0.837300 0.837300 0.837300
0.881550 0.881550 0.881550
0.925800 0.925800 0.925800
0.970050 0.970050 0.970050
1.000000 1.000000 1.000000
0.747325 0.747325 0.747325
0.791575 0.791575 0.791575
0.835825 0.835825 0.835825
0.880075 0.880075 0.880075
0.924325 0.924325 0.924325
0.968575 0.968575 0.968575
1.000000 1.000000 1.000000
1.000000 1.000000 1.000000
1.000000 1.000000 1.000000
0.067350 0.067350 0.067350
0.111600 0.111600 0.111600
0.155850 0.155850 0.155850
0.200100 0.200100 0.200100
0.244350 0.244350 0.244350
0.288600 0.288600 0.288600
0.332850 0.332850 0.332850
0.377100 0.377100 0.377100
0.421350 0.421350 0.421350
0.154375 0.154375 0.154375
0.198625 0.198625 0.198625
0.242875 0.242875 0.242875
0.287125 0.287125 0.287125
0.331375 0.331375 0.331375
0.375625 0.375625 0.375625
0.419875 0.419875 0.419875
0.464125 0.464125 0.464125
0.508375 0.508375 0.508375
0.241400 0.241400 0.241400
0.285650 0.285650 0.285650
0.329900 0.329900 0.329900
0.374150 0.374150 0.374150
0.418400 0.418400 0.418400
0.462650 0.462650 0.462650
0.506900 0.506900 0.506900
0.551150 0.551150 0.551150
0.595400 0.595400 0.595400
0.328425 0.328425 0.328425
0.372675 0.372675 0.372675
0.416925 0.416925 0.416925
0.461175 0.461175 0.461175
0.505425 0.505425 0.505425
0.549675 0.549675 0.549675
0.593925 0.593925 0.593925
0.638175 0.638175 0.638175
0.682425 0.682425 0.682425
0.415450 0.415450 0.415450
0.459700 0.459700 0.459700
0.503950 0.503950 0.503950
0.548200 0.548200 0.548200
0.592450 0.592450 0.592450
0.636700 0.636700 0.636700
0.680950 0.680950 0.680950
0.725200 0.725200 0.725200
0.769450 0.769450 0.769450
0.502475 0.502475 0.502475
0.546725 0.546725 0.546725
0.590975 0.590975 0.590975
0.635225 0.635225 0.635225
0.679475 0.679475 0.679475
0.723725 0.723725 0.723725
0.767975 0.767975 0.767975
0.812225 0.812225 0.812225
0.856475 0.856475 0.856475
0.589500 0.589500 0.589500
0.633750 0.633750 0.633750
0.678000 0.678000 0.678000
0.722250 0.722250 0.722250
0.766500 0.766500 0.766500
0.810750 0.810750 0.810750
0.855000 0.855000 0.855000
0.899250 0.899250 0.899250
0.943500 0.943500 0.943500
0.676525 0.676525 0.676525
0.720775 0.720775 0.720775
0.765025 0.765025 0.765025
0.809275 0.809275 0.809275
0.853525 0.853525 0.853525
0.897775 0.897775 0.897775
0.942025 0.942025 0.942025
0.986275 0.986275 0.986275
1.000000 1.000000 1.000000
0.763550 0.763550 0.763550
0.807800 0.807800 0.807800
0.852050 0.852050 0.852050
0.896300 0.896300 0.896300
0.940550 0.940550 0.940550
0.984800 0.984800 0.984800
1.000000 1.000000 1.000000
1.000000 1.000000 1.000000
1.000000 1.000000 1.000000
0.083575 0.083575 0.083575
0.127825 0.127825 0.127825
0.172075 0.172075 0.172075
0.216325 0.216325 0.216325
0.260575 0.260575 0.260575
0.304825 0.304825 0.304825
0.349075 0.349075 0.349075
0.393325 0.393325 0.393325
0.437575 0.437575 0.437575
0.170600 0.170600 0.170600
0.214850 0.214850 0.214850
0.259100 0.259100 0.259100
0.303350 0.303350 0.303350
0.347600 0.347600 0.347600
0.391850 0.391850 0.391850
0.436100 0.436100 0.436100
0.480350 0.480350 0.480350
0.524600 0.524600 0.524600
0.257625 0.257625 0.257625
0.301875 0.301875 0.301875
0.346125 0.346125 0.346125
0.390375 0.390375 0.390375
0.434625 0.434625 0.434625
0.478875 0.478875 0.478875
0.523125 0.523125 0.523125
0.567375 0.567375 0.567375
0.611625 0.611625 0.611625
0.344650 0.344650 0.344650
0.388900 0.388900 0.388900
0.433150 0.433150 0.433150
0.477400 0.477400 0.477400
0.521650 0.521650 0.521650
0.565900 0.565900 0.565900
0.610150 0.610150 0.610150
0.654400 0.654400 0.654400
0.698650 0.698650 0.698650
0.431675 0.431675 0.431675
0.475925 0.475925 0.475925
0.520175 0.520175 0.520175
0.564425 0.564425 0.564425
0.608675 0.608675 0.608675
0.652925 0.652925 0.652925
0.697175 0.697175 0.697175
0.741425 0.741425 0.741425
0.785675 0.785675 0.785675
0.518700 0.518700 0.518700
0.562950 0.562950 0.562950
0.607200 0.607200 0.607200
0.651450 0.651450 0.651450
0.695700 0.695700 0.695700
0.739950 0.739950 0.739950
0.784200 0.784200 0.784200
0.828450 0.828450 0.828450
0.872700 0.872700 0.872700
0.605725 0.605725 0.605725
0.649975 0.649975 0.649975
0.694225 0.694225 0.694225
0.738475 0.738475 0.738475
0.782725 0.782725 0.782725
0.826975 0.826975 0.826975
0.871225 0.871225 0.871225
0.915475 0.915475 0.915475
0.959725 0.959725 0.959725
0.692750 0.692750 0.692750
0.737000 0.737000 0.737000
0.781250 0.781250 0.781250
0.825500 0.825500 0.825500
0.869750 0.869750 0.869750
0.914000 0.914000 0.914000
0.958250 0.958250 0.958250
1.000000 1.000000 1.000000
1.000000 1.000000 1.000000
0.779775 0.779775 0.779775
0.824025 0.824025 0.824025
0.868275 0.868275 0.868275
0.912525 0.912525 0.912525
0.956775 0.956775 0.956775
1.000000 1.000000 1.000000
1.000000 1.000000 1.000000
1.000000 1.000000 1.000000
1.000000 1.000000 1.000000
0.099800 0.099800 0.099800
0.144050 0.144050 0.144050
0.188300 0.188300 0.188300
0.232550 0.232550 0.232550
0.276800 0.276800 0.276800
0.321050 0.321050 0.321050
0.365300 0.365300 0.365300
0.409550 0.409550 0.409550
0.453800 0.453800 0.453800
0.186825 0.186825 0.186825
0.231075 0.231075 0.231075
0.275325 0.275325 0.275325
0.319575 0.319575 0.319575
0.363825 0.363825 0.363825
0.408075 0.408075 0.408075
0.452325 0.452325 0.452325
0.496575 0.496575 0.496575
0.540825 0.540825 0.540825
0.273850 0.273850 0.273850
0.318100 0.318100 0.318100
0.362350 0.362350 0.362350
0.406600 0.406600 0.406600
0.450850 0.450850 0.450850
0.495100 0.495100 0.495100
0.539350 0.539350 0.539350
0.583600 0.583600 0.583600
0.627850 0.627850 0.627850
0.360875 0.360875 0.360875
0.405125 0.405125 0.405125
0.449375 0.449375 0.449375
0.493625 0.493625 0.493625
0.537875 0.537875 0.537875
0.582125 0.582125 0.582125
0.626375 0.626375 0.626375
0.670625 0.670625 0.670625
0.714875 0.714875 0.714875
0.447900 0.447900 0.447900
0.492150 0.492150 0.492150
0.536400 0.536400 0.536400
0.580650 0.580650 0.580650
0.624900 0.624900 0.624900
0.669150 0.669150 0.669150
0.713400 0.713400 0.713400
0.757650 0.757650 0.757650
0.801900 0.801900 0.801900
0.534925 0.534925 0.534925
0.579175 0.579175 0.579175
0.623425 0.623425 0.623425
0.667675 0.667675 0.667675
0.711925 0.711925 0.711925
0.756175 0.756175 0.756175
0.800425 0.800425 0.800425
0.844675 0.844675 0.844675
0.888925 0.888925 0.888925
0.621950 0.621950 0.621950
0.666200 0.666200 0.666200
0.710450 0.710450 0.710450
0.754700 0.754700 0.754700
0.798950 0.798950 0.798950
0.843200 0.843200 0.843200
0.887450 0.887450 0.887450
0.931700 0.931700 0.931700
0.975950 0.975950 0.975950
0.708975 0.708975 0.708975
0.753225 0.753225 0.753225
0.797475 0.797475 0.797475
0.841725 0.841725 0.841725
0.885975 0.885975 0.885975
0.930225 0.930225 0.930225
0.974475 0.974475 0.974475
1.000000 1.000000 1.000000
1.000000 1.000000 1.000000
0.796000 0.796000 0.796000
0.840250 0.840250 0.840250
0.884500 0.884500 0.884500
0.928750 0.928750 0.928750
0.973000 0.973000 0.973000
1.000000 1.000000 1.000000
1.000000 1.000000 1.000000
1.000000 1.000000 1.000000
1.000000 1.000000 1.000000
